;FLAVOR:Marlin
;TIME:6964
;Filament used: 1.25703m
;Layer height: 0.12
;MINX:223.845
;MINY:223.845
;MINZ:0.12
;MAXX:276.155
;MAXY:276.155
;MAXZ:76.92
;Generated with Cura_SteamEngine 4.2.1
M140 S50
M105
M190 S50
M104 S200
M105
M109 S200
M82 ;absolute extrusion mode
M201 X500.00 Y500.00 Z100.00 E5000.00 ;Setup machine max acceleration
M203 X500.00 Y500.00 Z10.00 E50.00 ;Setup machine max feedrate
M204 P500.00 R1000.00 T500.00 ;Setup Print/Retract/Travel acceleration
M205 X8.00 Y8.00 Z0.40 E5.00 ;Setup Jerk
M220 S100 ;Reset Feedrate
M221 S100 ;Reset Flowrate

G28 ;Home

G92 E0 ;Reset Extruder
G1 Z2.0 F3000 ;Move Z Axis up
G1 X10.1 Y20 Z0.28 F5000.0 ;Move to start position
G1 X10.1 Y200.0 Z0.28 F1500.0 E15 ;Draw the first line
G1 X10.4 Y200.0 Z0.28 F5000.0 ;Move to side a little
G1 X10.4 Y20 Z0.28 F1500.0 E30 ;Draw the second line
G92 E0 ;Reset Extruder
G1 Z2.0 F3000 ;Move Z Axis up

M141 S28
G92 E0
G92 E0
G1 F2700 E-5
;LAYER_COUNT:641
;LAYER:0
M107
G0 F6000 X227.943 Y228.098 Z0.12
;TYPE:SKIRT
G1 F2700 E0
G1 F1200 X228.159 Y227.882 E0.00503
G1 X228.456 Y227.593 E0.01185
G1 X229.16 Y226.964 E0.02739
G1 X229.915 Y226.396 E0.04295
G1 X231.026 Y225.724 E0.06433
G1 X231.488 Y225.48 E0.07293
G1 X231.762 Y225.34 E0.07799
G1 X232.135 Y225.156 E0.08484
G1 X232.999 Y224.774 E0.10039
G1 X233.892 Y224.467 E0.11594
G1 X235.153 Y224.171 E0.13727
G1 X235.669 Y224.081 E0.14589
G1 X235.99 Y224.03 E0.15124
G1 X236.405 Y223.97 E0.15814
G1 X237.665 Y223.86 E0.17897
G1 X237.964 Y223.851 E0.18389
G1 X238.3 Y223.846 E0.18943
G1 X261.293 Y223.845 E0.56798
G1 X261.453 Y223.846 E0.57061
G1 X262.151 Y223.856 E0.5821
G1 X263.348 Y223.938 E0.60186
G1 X263.65 Y223.975 E0.60687
G1 X264.194 Y224.055 E0.61592
G1 X264.807 Y224.161 E0.62616
G1 X265.73 Y224.361 E0.64171
G1 X266.632 Y224.639 E0.65725
G1 X267.766 Y225.112 E0.67748
G1 X268.235 Y225.339 E0.68606
G1 X268.561 Y225.504 E0.69207
G1 X268.94 Y225.703 E0.69912
G1 X269.757 Y226.177 E0.71467
G1 X270.53 Y226.718 E0.7302
G1 X271.533 Y227.584 E0.75202
G1 X271.902 Y227.943 E0.7605
G1 X272.118 Y228.159 E0.76553
G1 X272.407 Y228.456 E0.77235
G1 X273.036 Y229.16 E0.78789
G1 X273.604 Y229.915 E0.80345
G1 X274.276 Y231.026 E0.82482
G1 X274.52 Y231.488 E0.83343
G1 X274.66 Y231.762 E0.83849
G1 X274.844 Y232.135 E0.84534
G1 X275.226 Y232.999 E0.86089
G1 X275.533 Y233.892 E0.87644
G1 X275.829 Y235.153 E0.89776
G1 X275.919 Y235.669 E0.90639
G1 X275.969 Y235.982 E0.91161
G1 X276.029 Y236.395 E0.91848
G1 X276.14 Y237.666 E0.93948
G1 X276.149 Y237.967 E0.94444
G1 X276.154 Y238.3 E0.94992
G1 X276.155 Y261.293 E1.32847
G1 X276.154 Y261.453 E1.33111
G1 X276.144 Y262.15 E1.34258
G1 X276.063 Y263.342 E1.36225
G1 X276.026 Y263.645 E1.36728
G1 X275.945 Y264.194 E1.37642
G1 X275.839 Y264.807 E1.38666
G1 X275.639 Y265.73 E1.40221
G1 X275.361 Y266.632 E1.41775
G1 X274.888 Y267.766 E1.43798
G1 X274.661 Y268.235 E1.44655
G1 X274.496 Y268.561 E1.45257
G1 X274.297 Y268.94 E1.45962
G1 X273.823 Y269.757 E1.47517
G1 X273.282 Y270.53 E1.4907
G1 X272.416 Y271.533 E1.51252
G1 X272.057 Y271.902 E1.52099
G1 X271.841 Y272.118 E1.52602
G1 X271.544 Y272.407 E1.53285
G1 X270.84 Y273.036 E1.54839
G1 X270.085 Y273.604 E1.56394
G1 X268.974 Y274.276 E1.58532
G1 X268.512 Y274.52 E1.59392
G1 X268.238 Y274.66 E1.59899
G1 X267.865 Y274.844 E1.60584
G1 X267.001 Y275.226 E1.62139
G1 X266.108 Y275.533 E1.63694
G1 X264.847 Y275.829 E1.65826
G1 X264.331 Y275.919 E1.66688
G1 X264.01 Y275.97 E1.67224
G1 X263.595 Y276.03 E1.67914
G1 X262.335 Y276.14 E1.69996
G1 X262.036 Y276.149 E1.70489
G1 X261.7 Y276.154 E1.71042
G1 X238.707 Y276.155 E2.08897
G1 X238.547 Y276.154 E2.09161
G1 X237.85 Y276.144 E2.10308
G1 X236.658 Y276.063 E2.12275
G1 X236.355 Y276.026 E2.12778
G1 X235.806 Y275.945 E2.13691
G1 X235.193 Y275.839 E2.14716
G1 X234.27 Y275.639 E2.1627
G1 X233.368 Y275.361 E2.17824
G1 X232.234 Y274.888 E2.19847
G1 X231.765 Y274.661 E2.20705
G1 X231.439 Y274.496 E2.21307
G1 X231.06 Y274.297 E2.22011
G1 X230.243 Y273.823 E2.23567
G1 X229.47 Y273.282 E2.2512
G1 X228.467 Y272.416 E2.27302
G1 X228.098 Y272.057 E2.28149
G1 X227.869 Y271.828 E2.28682
G1 X227.58 Y271.53 E2.29366
G1 X226.952 Y270.825 E2.3092
G1 X226.386 Y270.069 E2.32475
G1 X225.729 Y268.982 E2.34566
G1 X225.485 Y268.521 E2.35425
G1 X225.34 Y268.238 E2.35948
G1 X225.155 Y267.863 E2.36637
G1 X224.774 Y266.999 E2.38192
G1 X224.466 Y266.106 E2.39747
G1 X224.167 Y264.827 E2.41909
G1 X224.073 Y264.283 E2.42818
G1 X224.022 Y263.962 E2.43353
G1 X223.967 Y263.577 E2.43994
G1 X223.86 Y262.335 E2.46046
G1 X223.851 Y262.036 E2.46538
G1 X223.846 Y261.7 E2.47092
G1 X223.845 Y238.707 E2.84947
G1 X223.846 Y238.547 E2.8521
G1 X223.856 Y237.85 E2.86358
G1 X223.937 Y236.658 E2.88325
G1 X223.974 Y236.355 E2.88827
G1 X224.055 Y235.806 E2.89741
G1 X224.161 Y235.193 E2.90765
G1 X224.361 Y234.27 E2.9232
G1 X224.639 Y233.368 E2.93874
G1 X225.112 Y232.234 E2.95897
G1 X225.339 Y231.765 E2.96755
G1 X225.504 Y231.439 E2.97356
G1 X225.703 Y231.06 E2.98061
G1 X226.177 Y230.243 E2.99616
G1 X226.718 Y229.47 E3.0117
G1 X227.584 Y228.467 E3.03351
G1 X227.943 Y228.098 E3.04199
G0 F6000 X228.179 Y228.328
G1 F1200 X228.389 Y228.119 E3.04687
G1 X228.686 Y227.83 E3.05369
G1 X229.38 Y227.21 E3.06901
G1 X230.125 Y226.653 E3.08432
G1 X231.18 Y226.016 E3.10461
G1 X231.642 Y225.772 E3.11322
G1 X231.908 Y225.636 E3.11813
G1 X232.281 Y225.452 E3.12498
G1 X233.132 Y225.077 E3.14029
G1 X234.013 Y224.776 E3.15562
G1 X235.21 Y224.496 E3.17586
G1 X235.726 Y224.406 E3.18448
G1 X236.037 Y224.356 E3.18967
G1 X236.452 Y224.296 E3.19657
G1 X237.675 Y224.19 E3.21678
G1 X237.974 Y224.181 E3.22171
G1 X238.3 Y224.176 E3.22708
G1 X261.293 Y224.175 E3.60563
G1 X261.448 Y224.176 E3.60818
G1 X262.146 Y224.186 E3.61967
G1 X263.307 Y224.265 E3.63883
G1 X263.609 Y224.302 E3.64384
G1 X264.137 Y224.38 E3.65263
G1 X264.75 Y224.486 E3.66287
G1 X265.66 Y224.684 E3.6782
G1 X266.548 Y224.959 E3.69351
G1 X267.622 Y225.409 E3.71268
G1 X268.091 Y225.636 E3.72126
G1 X268.407 Y225.796 E3.72709
G1 X268.786 Y225.995 E3.73414
G1 X269.591 Y226.462 E3.74946
G1 X270.352 Y226.997 E3.76477
G1 X271.303 Y227.82 E3.78548
G1 X271.672 Y228.179 E3.79396
G1 X271.881 Y228.389 E3.79883
G1 X272.17 Y228.686 E3.80566
G1 X272.79 Y229.38 E3.82098
G1 X273.347 Y230.125 E3.83629
G1 X273.984 Y231.18 E3.85658
G1 X274.228 Y231.642 E3.86518
G1 X274.364 Y231.908 E3.8701
G1 X274.548 Y232.281 E3.87695
G1 X274.923 Y233.132 E3.89226
G1 X275.224 Y234.013 E3.90759
G1 X275.504 Y235.21 E3.92783
G1 X275.594 Y235.726 E3.93645
G1 X275.643 Y236.03 E3.94152
G1 X275.703 Y236.443 E3.94839
G1 X275.81 Y237.675 E3.96875
G1 X275.819 Y237.976 E3.97371
G1 X275.824 Y238.3 E3.97904
G1 X275.825 Y261.293 E4.35759
G1 X275.824 Y261.448 E4.36015
G1 X275.814 Y262.145 E4.37162
G1 X275.735 Y263.302 E4.39072
G1 X275.698 Y263.605 E4.39574
G1 X275.62 Y264.137 E4.40459
G1 X275.514 Y264.75 E4.41484
G1 X275.316 Y265.66 E4.43017
G1 X275.041 Y266.548 E4.44547
G1 X274.591 Y267.622 E4.46465
G1 X274.364 Y268.091 E4.47322
G1 X274.204 Y268.407 E4.47905
G1 X274.005 Y268.786 E4.4861
G1 X273.538 Y269.591 E4.50142
G1 X273.003 Y270.352 E4.51674
G1 X272.18 Y271.303 E4.53745
G1 X271.821 Y271.672 E4.54592
G1 X271.611 Y271.881 E4.5508
G1 X271.314 Y272.17 E4.55762
G1 X270.62 Y272.79 E4.57294
G1 X269.875 Y273.347 E4.58826
G1 X268.82 Y273.984 E4.60855
G1 X268.358 Y274.228 E4.61715
G1 X268.092 Y274.364 E4.62207
G1 X267.719 Y274.548 E4.62892
G1 X266.868 Y274.923 E4.64423
G1 X265.987 Y275.224 E4.65955
G1 X264.79 Y275.504 E4.67979
G1 X264.274 Y275.594 E4.68842
G1 X263.963 Y275.644 E4.6936
G1 X263.548 Y275.704 E4.70051
G1 X262.325 Y275.81 E4.72072
G1 X262.026 Y275.819 E4.72564
G1 X261.7 Y275.824 E4.73101
G1 X238.707 Y275.825 E5.10956
G1 X238.552 Y275.824 E5.11211
G1 X237.855 Y275.814 E5.12359
G1 X236.698 Y275.735 E5.14268
G1 X236.395 Y275.698 E5.14771
G1 X235.863 Y275.62 E5.15656
G1 X235.25 Y275.514 E5.1668
G1 X234.34 Y275.316 E5.18214
G1 X233.452 Y275.041 E5.19744
G1 X232.378 Y274.591 E5.21661
G1 X231.909 Y274.364 E5.22519
G1 X231.593 Y274.204 E5.23102
G1 X231.214 Y274.005 E5.23807
G1 X230.409 Y273.538 E5.25339
G1 X229.648 Y273.003 E5.26871
G1 X228.697 Y272.18 E5.28941
G1 X228.328 Y271.821 E5.29789
G1 X228.106 Y271.598 E5.30307
G1 X227.817 Y271.3 E5.3099
G1 X227.199 Y270.605 E5.32521
G1 X226.642 Y269.859 E5.34054
G1 X226.02 Y268.828 E5.36037
G1 X225.776 Y268.367 E5.36895
G1 X225.636 Y268.092 E5.37403
G1 X225.451 Y267.717 E5.38092
G1 X225.076 Y266.866 E5.39623
G1 X224.775 Y265.986 E5.41154
G1 X224.492 Y264.771 E5.43208
G1 X224.398 Y264.227 E5.44117
G1 X224.349 Y263.915 E5.44637
G1 X224.294 Y263.53 E5.45277
G1 X224.19 Y262.325 E5.47268
G1 X224.181 Y262.026 E5.47761
G1 X224.176 Y261.7 E5.48298
G1 X224.175 Y238.707 E5.86153
G1 X224.176 Y238.552 E5.86408
G1 X224.186 Y237.855 E5.87556
G1 X224.265 Y236.698 E5.89465
G1 X224.302 Y236.395 E5.89968
G1 X224.38 Y235.863 E5.90853
G1 X224.486 Y235.25 E5.91877
G1 X224.684 Y234.34 E5.9341
G1 X224.959 Y233.452 E5.94941
G1 X225.409 Y232.378 E5.96858
G1 X225.636 Y231.909 E5.97716
G1 X225.796 Y231.593 E5.98299
G1 X225.995 Y231.214 E5.99004
G1 X226.462 Y230.409 E6.00536
G1 X226.997 Y229.648 E6.02067
G1 X227.82 Y228.697 E6.04138
G1 X228.179 Y228.328 E6.04986
G0 F6000 X228.416 Y228.559
G1 F1200 X228.619 Y228.355 E6.05459
G1 X228.916 Y228.066 E6.06142
G1 X229.6 Y227.457 E6.07649
G1 X230.334 Y226.909 E6.09158
G1 X231.334 Y226.308 E6.11078
G1 X231.796 Y226.064 E6.11939
G1 X232.054 Y225.932 E6.12416
G1 X232.427 Y225.748 E6.131
G1 X233.265 Y225.379 E6.14608
G1 X234.133 Y225.084 E6.16117
G1 X235.267 Y224.821 E6.18034
G1 X235.783 Y224.731 E6.18896
G1 X236.084 Y224.683 E6.19398
G1 X236.499 Y224.623 E6.20088
G1 X237.685 Y224.52 E6.22048
G1 X237.984 Y224.511 E6.22541
G1 X238.3 Y224.506 E6.23061
G1 X261.293 Y224.505 E6.60916
G1 X261.443 Y224.506 E6.61163
G1 X262.141 Y224.516 E6.62312
G1 X263.267 Y224.593 E6.64171
G1 X263.569 Y224.63 E6.64672
G1 X264.081 Y224.705 E6.65523
G1 X264.694 Y224.811 E6.66548
G1 X265.589 Y225.007 E6.68056
G1 X266.464 Y225.279 E6.69565
G1 X267.478 Y225.706 E6.71376
G1 X267.947 Y225.933 E6.72234
G1 X268.254 Y226.088 E6.728
G1 X268.633 Y226.287 E6.73505
G1 X269.425 Y226.748 E6.75014
G1 X270.173 Y227.276 E6.76521
G1 X271.072 Y228.057 E6.78482
G1 X271.441 Y228.416 E6.79329
G1 X271.645 Y228.619 E6.79803
G1 X271.934 Y228.916 E6.80485
G1 X272.543 Y229.6 E6.81993
G1 X273.091 Y230.334 E6.83501
G1 X273.692 Y231.334 E6.85422
G1 X273.936 Y231.796 E6.86282
G1 X274.068 Y232.054 E6.86759
G1 X274.252 Y232.427 E6.87444
G1 X274.621 Y233.265 E6.88952
G1 X274.916 Y234.133 E6.90461
G1 X275.179 Y235.267 E6.92377
G1 X275.269 Y235.783 E6.9324
G1 X275.316 Y236.077 E6.9373
G1 X275.376 Y236.49 E6.94417
G1 X275.48 Y237.685 E6.96392
G1 X275.489 Y237.986 E6.96888
G1 X275.494 Y238.3 E6.97405
G1 X275.495 Y261.293 E7.3526
G1 X275.494 Y261.444 E7.35509
G1 X275.484 Y262.141 E7.36656
G1 X275.408 Y263.262 E7.38506
G1 X275.371 Y263.565 E7.39009
G1 X275.295 Y264.081 E7.39867
G1 X275.189 Y264.694 E7.40891
G1 X274.993 Y265.589 E7.424
G1 X274.721 Y266.464 E7.43908
G1 X274.294 Y267.478 E7.4572
G1 X274.067 Y267.947 E7.46578
G1 X273.912 Y268.254 E7.47144
G1 X273.713 Y268.633 E7.47849
G1 X273.252 Y269.425 E7.49357
G1 X272.724 Y270.173 E7.50865
G1 X271.943 Y271.072 E7.52825
G1 X271.584 Y271.441 E7.53673
G1 X271.381 Y271.645 E7.54147
G1 X271.084 Y271.934 E7.54829
G1 X270.4 Y272.543 E7.56337
G1 X269.666 Y273.091 E7.57845
G1 X268.666 Y273.692 E7.59766
G1 X268.204 Y273.936 E7.60626
G1 X267.946 Y274.068 E7.61103
G1 X267.573 Y274.252 E7.61788
G1 X266.735 Y274.621 E7.63295
G1 X265.867 Y274.916 E7.64805
G1 X264.733 Y275.179 E7.66721
G1 X264.217 Y275.269 E7.67584
G1 X263.916 Y275.317 E7.68085
G1 X263.501 Y275.377 E7.68776
G1 X262.315 Y275.48 E7.70736
G1 X262.016 Y275.489 E7.71228
G1 X261.7 Y275.494 E7.71749
G1 X238.707 Y275.495 E8.09604
G1 X238.556 Y275.494 E8.09852
G1 X237.859 Y275.484 E8.11
G1 X236.738 Y275.408 E8.1285
G1 X236.435 Y275.371 E8.13352
G1 X235.919 Y275.295 E8.14211
G1 X235.306 Y275.189 E8.15235
G1 X234.411 Y274.993 E8.16744
G1 X233.536 Y274.721 E8.18252
G1 X232.522 Y274.294 E8.20064
G1 X232.053 Y274.067 E8.20921
G1 X231.746 Y273.912 E8.21488
G1 X231.367 Y273.713 E8.22192
G1 X230.575 Y273.252 E8.23701
G1 X229.827 Y272.724 E8.25209
G1 X228.928 Y271.943 E8.27169
G1 X228.559 Y271.584 E8.28017
G1 X228.343 Y271.368 E8.2852
G1 X228.054 Y271.07 E8.29203
G1 X227.446 Y270.386 E8.3071
G1 X226.899 Y269.65 E8.3222
G1 X226.312 Y268.674 E8.34095
G1 X226.068 Y268.213 E8.34953
G1 X225.932 Y267.946 E8.35447
G1 X225.747 Y267.571 E8.36135
G1 X225.378 Y266.733 E8.37643
G1 X225.083 Y265.865 E8.39152
G1 X224.817 Y264.715 E8.41095
G1 X224.723 Y264.171 E8.42004
G1 X224.675 Y263.868 E8.42509
G1 X224.62 Y263.483 E8.4315
G1 X224.52 Y262.315 E8.4508
G1 X224.511 Y262.016 E8.45572
G1 X224.506 Y261.7 E8.46092
G1 X224.505 Y238.707 E8.83948
G1 X224.506 Y238.556 E8.84196
G1 X224.516 Y237.859 E8.85344
G1 X224.592 Y236.738 E8.87194
G1 X224.629 Y236.435 E8.87696
G1 X224.705 Y235.919 E8.88555
G1 X224.811 Y235.306 E8.89579
G1 X225.007 Y234.411 E8.91087
G1 X225.279 Y233.536 E8.92596
G1 X225.706 Y232.522 E8.94407
G1 X225.933 Y232.053 E8.95265
G1 X226.088 Y231.746 E8.95832
G1 X226.287 Y231.367 E8.96536
G1 X226.748 Y230.575 E8.98045
G1 X227.276 Y229.827 E8.99552
G1 X228.057 Y228.928 E9.01513
G1 X228.416 Y228.559 E9.02361
G0 F6000 X228.652 Y228.789
G1 F1200 X228.849 Y228.592 E9.02819
G1 X229.146 Y228.303 E9.03502
G1 X229.819 Y227.703 E9.04986
G1 X230.543 Y227.166 E9.0647
G1 X231.488 Y226.6 E9.08284
G1 X231.95 Y226.356 E9.09144
G1 X232.2 Y226.228 E9.09606
G1 X232.573 Y226.044 E9.10291
G1 X233.398 Y225.681 E9.11775
G1 X234.253 Y225.393 E9.1326
G1 X235.323 Y225.146 E9.15068
G1 X235.839 Y225.056 E9.15931
G1 X236.131 Y225.01 E9.16417
G1 X236.546 Y224.95 E9.17108
G1 X237.695 Y224.85 E9.19006
G1 X237.994 Y224.841 E9.19499
G1 X238.3 Y224.836 E9.20003
G1 X261.293 Y224.835 E9.57858
G1 X261.439 Y224.836 E9.58098
G1 X262.137 Y224.846 E9.59248
G1 X263.227 Y224.92 E9.61046
G1 X263.529 Y224.957 E9.61547
G1 X264.025 Y225.031 E9.62373
G1 X264.638 Y225.137 E9.63397
G1 X265.519 Y225.33 E9.64882
G1 X266.379 Y225.6 E9.66366
G1 X267.334 Y226.003 E9.68072
G1 X267.803 Y226.23 E9.6893
G1 X268.101 Y226.38 E9.6948
G1 X268.48 Y226.579 E9.70184
G1 X269.258 Y227.033 E9.71667
G1 X269.994 Y227.555 E9.73153
G1 X270.842 Y228.293 E9.75004
G1 X271.211 Y228.652 E9.75851
G1 X271.408 Y228.849 E9.7631
G1 X271.697 Y229.146 E9.76992
G1 X272.297 Y229.819 E9.78477
G1 X272.834 Y230.543 E9.79961
G1 X273.4 Y231.488 E9.81774
G1 X273.644 Y231.95 E9.82634
G1 X273.772 Y232.2 E9.83097
G1 X273.956 Y232.573 E9.83782
G1 X274.319 Y233.398 E9.85265
G1 X274.607 Y234.253 E9.86751
G1 X274.854 Y235.323 E9.88559
G1 X274.944 Y235.839 E9.89421
G1 X274.989 Y236.125 E9.89898
G1 X275.049 Y236.538 E9.90585
G1 X275.15 Y237.695 E9.92497
G1 X275.159 Y237.996 E9.92993
G1 X275.164 Y238.3 E9.93493
G1 X275.165 Y261.293 E10.31349
G1 X275.164 Y261.439 E10.31589
G1 X275.154 Y262.136 E10.32737
G1 X275.08 Y263.222 E10.34529
G1 X275.043 Y263.525 E10.35031
G1 X274.969 Y264.025 E10.35863
G1 X274.863 Y264.638 E10.36888
G1 X274.67 Y265.519 E10.38372
G1 X274.4 Y266.379 E10.39856
G1 X273.997 Y267.334 E10.41563
G1 X273.77 Y267.803 E10.42421
G1 X273.62 Y268.101 E10.4297
G1 X273.421 Y268.48 E10.43675
G1 X272.967 Y269.258 E10.45158
G1 X272.445 Y269.994 E10.46643
G1 X271.707 Y270.842 E10.48494
G1 X271.348 Y271.211 E10.49342
G1 X271.151 Y271.408 E10.49801
G1 X270.854 Y271.697 E10.50483
G1 X270.181 Y272.297 E10.51967
G1 X269.457 Y272.834 E10.53451
G1 X268.512 Y273.4 E10.55265
G1 X268.05 Y273.644 E10.56125
G1 X267.8 Y273.772 E10.56587
G1 X267.427 Y273.956 E10.57272
G1 X266.602 Y274.319 E10.58756
G1 X265.747 Y274.607 E10.60241
G1 X264.677 Y274.854 E10.62049
G1 X264.161 Y274.944 E10.62912
G1 X263.869 Y274.99 E10.63398
G1 X263.454 Y275.05 E10.64089
G1 X262.305 Y275.15 E10.65988
G1 X262.006 Y275.159 E10.6648
G1 X261.7 Y275.164 E10.66984
G1 X238.707 Y275.165 E11.04839
G1 X238.561 Y275.164 E11.05079
G1 X237.864 Y275.154 E11.06227
G1 X236.778 Y275.08 E11.08019
G1 X236.475 Y275.043 E11.08522
G1 X235.975 Y274.969 E11.09354
G1 X235.362 Y274.863 E11.10378
G1 X234.481 Y274.67 E11.11863
