;FLAVOR:Marlin
;TIME:1439
;Filament used: 0.272637m
;Layer height: 0.12
;MINX:226.345
;MINY:226.345
;MINZ:0.12
;MAXX:273.654
;MAXY:273.654
;MAXZ:6.96
;Generated with Cura_SteamEngine 4.2.1
M140 S50
M105
M190 S50
M104 S200
M105
M109 S200
M82 ;absolute extrusion mode
M201 X500.00 Y500.00 Z100.00 E5000.00 ;Setup machine max acceleration
M203 X500.00 Y500.00 Z10.00 E50.00 ;Setup machine max feedrate
M204 P500.00 R1000.00 T500.00 ;Setup Print/Retract/Travel acceleration
M205 X8.00 Y8.00 Z0.40 E5.00 ;Setup Jerk
M220 S100 ;Reset Feedrate
M221 S100 ;Reset Flowrate

G28 ;Home

G92 E0 ;Reset Extruder
G1 Z2.0 F3000 ;Move Z Axis up
G1 X10.1 Y20 Z0.28 F5000.0 ;Move to start position
G1 X10.1 Y200.0 Z0.28 F1500.0 E15 ;Draw the first line
G1 X10.4 Y200.0 Z0.28 F5000.0 ;Move to side a little
G1 X10.4 Y20 Z0.28 F1500.0 E30 ;Draw the second line
G92 E0 ;Reset Extruder
G1 Z2.0 F3000 ;Move Z Axis up

M141 S28
G92 E0
G92 E0
G1 F2700 E-5
;LAYER_COUNT:58
;LAYER:0
M107
G0 F6000 X238.717 Y230.134 Z0.12
;TYPE:SKIRT
G1 F2700 E0
G1 F1200 X239.39 Y229.471 E0.01555
G1 X240.116 Y228.868 E0.03109
G1 X241.211 Y228.132 E0.05281
G1 X241.457 Y227.987 E0.05751
G1 X242.29 Y227.542 E0.07306
G1 X243.158 Y227.17 E0.08861
G1 X244.054 Y226.872 E0.10416
G1 X244.619 Y226.726 E0.11376
G1 X244.971 Y226.645 E0.11971
G1 X245.9 Y226.472 E0.13527
G1 X247.053 Y226.369 E0.15433
G1 X247.425 Y226.355 E0.16046
G1 X247.766 Y226.347 E0.16607
G1 X248.049 Y226.345 E0.17073
G1 X251.793 Y226.345 E0.23237
G1 X251.958 Y226.346 E0.23509
G1 X252.568 Y226.355 E0.24513
G1 X253.891 Y226.454 E0.26697
G1 X254.255 Y226.503 E0.27302
G1 X255.185 Y226.668 E0.28857
G1 X256.098 Y226.912 E0.30413
G1 X257.409 Y227.415 E0.32725
G1 X257.704 Y227.55 E0.33259
G1 X258.545 Y227.979 E0.34813
G1 X259.347 Y228.477 E0.36368
G1 X260.104 Y229.042 E0.37923
G1 X260.648 Y229.514 E0.39109
G1 X260.841 Y229.693 E0.39542
G1 X261.536 Y230.398 E0.41172
G1 X262.153 Y231.082 E0.42688
G1 X263.968 Y233.044 E0.47089
G1 X265.696 Y234.809 E0.51155
G1 X267.509 Y236.559 E0.55304
G1 X268.918 Y237.835 E0.58434
G1 X269.036 Y237.943 E0.58697
G1 X269.866 Y238.717 E0.60565
G1 X270.529 Y239.39 E0.62121
G1 X271.132 Y240.116 E0.63675
G1 X271.868 Y241.211 E0.65847
G1 X272.013 Y241.457 E0.66317
G1 X272.458 Y242.29 E0.67872
G1 X272.83 Y243.158 E0.69426
G1 X273.128 Y244.054 E0.70981
G1 X273.255 Y244.54 E0.71808
G1 X273.333 Y244.868 E0.72363
G1 X273.513 Y245.796 E0.73919
G1 X273.613 Y246.735 E0.75474
G1 X273.634 Y247.245 E0.76314
G1 X273.65 Y248.121 E0.77757
G1 X273.652 Y248.319 E0.78083
G1 X273.654 Y251.782 E0.83784
G1 X273.653 Y251.934 E0.84035
G1 X273.645 Y252.546 E0.85042
G1 X273.544 Y253.902 E0.87281
G1 X273.494 Y254.27 E0.87892
G1 X273.328 Y255.199 E0.89446
G1 X273.083 Y256.112 E0.91002
G1 X272.585 Y257.407 E0.93287
G1 X272.451 Y257.7 E0.93817
G1 X272.023 Y258.542 E0.95372
G1 X271.524 Y259.344 E0.96927
G1 X270.96 Y260.101 E0.98481
G1 X270.502 Y260.629 E0.99632
G1 X270.321 Y260.825 E1.00071
G1 X269.598 Y261.539 E1.01744
G1 X268.935 Y262.137 E1.03214
G1 X266.975 Y263.951 E1.07611
G1 X265.174 Y265.714 E1.11761
G1 X263.441 Y267.51 E1.1587
G1 X262.176 Y268.906 E1.18971
G1 X262.07 Y269.022 E1.1923
G1 X261.288 Y269.861 E1.21118
G1 X260.615 Y270.524 E1.22673
G1 X259.889 Y271.127 E1.24227
G1 X258.828 Y271.844 E1.26336
G1 X258.579 Y271.992 E1.26812
G1 X257.747 Y272.44 E1.28368
G1 X256.88 Y272.816 E1.29924
G1 X255.985 Y273.117 E1.31479
G1 X255.43 Y273.262 E1.32423
G1 X255.098 Y273.34 E1.32985
G1 X254.171 Y273.517 E1.34538
G1 X253.231 Y273.615 E1.36094
G1 X252.75 Y273.634 E1.36887
G1 X251.871 Y273.65 E1.38334
G1 X251.674 Y273.652 E1.38659
G1 X248.218 Y273.654 E1.44348
G1 X248.066 Y273.653 E1.44599
G1 X247.454 Y273.645 E1.45606
G1 X246.098 Y273.544 E1.47845
G1 X245.73 Y273.494 E1.48456
G1 X244.801 Y273.328 E1.5001
G1 X243.888 Y273.083 E1.51566
G1 X242.606 Y272.591 E1.53827
G1 X242.312 Y272.457 E1.54359
G1 X241.47 Y272.03 E1.55913
G1 X240.667 Y271.532 E1.57469
G1 X239.909 Y270.969 E1.59024
G1 X239.349 Y270.483 E1.60244
G1 X239.154 Y270.302 E1.60682
G1 X238.461 Y269.598 E1.62309
G1 X237.863 Y268.935 E1.63779
G1 X236.049 Y266.975 E1.68176
G1 X234.286 Y265.174 E1.72325
G1 X232.488 Y263.439 E1.76439
G1 X231.078 Y262.161 E1.79572
G1 X230.962 Y262.055 E1.7983
G1 X230.135 Y261.284 E1.81692
G1 X229.472 Y260.611 E1.83247
G1 X228.869 Y259.885 E1.84801
G1 X228.132 Y258.789 E1.86975
G1 X227.987 Y258.543 E1.87446
G1 X227.542 Y257.71 E1.89
G1 X227.17 Y256.842 E1.90555
G1 X226.872 Y255.946 E1.9211
G1 X226.722 Y255.363 E1.93101
G1 X226.64 Y255.004 E1.93707
G1 X226.469 Y254.075 E1.95262
G1 X226.367 Y252.917 E1.97176
G1 X226.354 Y252.552 E1.97778
G1 X226.347 Y252.221 E1.98323
G1 X226.345 Y251.881 E1.98882
G1 X226.345 Y248.179 E2.04977
G1 X226.346 Y248.007 E2.0526
G1 X226.355 Y247.425 E2.06219
G1 X226.453 Y246.113 E2.08385
G1 X226.502 Y245.748 E2.08991
G1 X226.667 Y244.818 E2.10546
G1 X226.911 Y243.905 E2.12102
G1 X227.23 Y243.017 E2.13656
G1 X227.427 Y242.564 E2.14469
G1 X227.562 Y242.271 E2.15
G1 X227.993 Y241.431 E2.16554
G1 X228.494 Y240.63 E2.1811
G1 X229.06 Y239.874 E2.19665
G1 X229.498 Y239.371 E2.20763
G1 X229.679 Y239.175 E2.21202
G1 X230.402 Y238.461 E2.22875
G1 X231.072 Y237.856 E2.24361
G1 X233.025 Y236.049 E2.28742
G1 X234.826 Y234.286 E2.32891
G1 X236.559 Y232.49 E2.37
G1 X237.835 Y231.082 E2.40128
G1 X237.943 Y230.964 E2.40392
G1 X238.717 Y230.134 E2.4226
G0 F6000 X238.958 Y230.359
G1 F1200 X239.621 Y229.707 E2.43791
G1 X240.338 Y229.114 E2.45323
G1 X241.378 Y228.416 E2.47385
G1 X241.624 Y228.271 E2.47855
G1 X242.445 Y227.834 E2.49386
G1 X243.301 Y227.468 E2.50919
G1 X244.185 Y227.178 E2.52451
G1 X244.693 Y227.048 E2.53314
G1 X245.045 Y226.967 E2.53909
G1 X245.96 Y226.797 E2.55441
G1 X247.066 Y226.699 E2.57269
G1 X247.438 Y226.685 E2.57882
G1 X247.769 Y226.677 E2.58427
G1 X248.052 Y226.675 E2.58893
G1 X251.793 Y226.675 E2.65052
G1 X251.953 Y226.676 E2.65316
G1 X252.563 Y226.685 E2.6632
G1 X253.847 Y226.781 E2.6844
G1 X254.211 Y226.83 E2.69044
G1 X255.127 Y226.993 E2.70576
G1 X256.025 Y227.235 E2.72107
G1 X257.272 Y227.715 E2.74307
G1 X257.567 Y227.85 E2.74841
G1 X258.395 Y228.273 E2.76372
G1 X259.184 Y228.766 E2.77904
G1 X259.928 Y229.324 E2.79435
G1 X260.423 Y229.756 E2.80517
G1 X260.616 Y229.935 E2.8095
G1 X261.291 Y230.619 E2.82532
G1 X261.961 Y231.361 E2.84178
G1 X263.705 Y233.247 E2.88407
G1 X265.481 Y235.061 E2.92587
G1 X267.26 Y236.777 E2.96656
G1 X268.697 Y238.079 E2.99849
G1 X268.811 Y238.184 E3.00104
G1 X269.641 Y238.958 E3.01972
G1 X270.293 Y239.621 E3.03503
G1 X270.886 Y240.338 E3.05035
G1 X271.584 Y241.378 E3.07097
G1 X271.729 Y241.624 E3.07568
G1 X272.166 Y242.445 E3.09099
G1 X272.532 Y243.301 E3.10631
G1 X272.934 Y244.617 E3.12897
G1 X273.012 Y244.945 E3.13452
G1 X273.188 Y245.858 E3.14983
G1 X273.286 Y246.783 E3.16514
G1 X273.304 Y247.251 E3.17285
G1 X273.32 Y248.127 E3.18728
G1 X273.322 Y248.319 E3.19044
G1 X273.324 Y251.782 E3.24745
G1 X273.323 Y251.929 E3.24987
G1 X273.315 Y252.541 E3.25995
G1 X273.217 Y253.857 E3.28168
G1 X273.167 Y254.225 E3.28779
G1 X273.003 Y255.141 E3.30311
G1 X272.76 Y256.039 E3.31843
G1 X272.285 Y257.27 E3.34015
G1 X272.151 Y257.563 E3.34546
G1 X271.728 Y258.392 E3.36078
G1 X271.236 Y259.181 E3.37609
G1 X270.677 Y259.925 E3.39141
G1 X270.26 Y260.405 E3.40188
G1 X270.079 Y260.601 E3.40627
G1 X269.377 Y261.294 E3.42251
G1 X268.686 Y261.917 E3.43783
G1 X266.753 Y263.705 E3.48118
G1 X264.938 Y265.482 E3.523
G1 X263.209 Y267.275 E3.56401
G1 X261.932 Y268.684 E3.59531
G1 X261.829 Y268.797 E3.59783
G1 X261.047 Y269.636 E3.61671
G1 X260.384 Y270.288 E3.63202
G1 X259.667 Y270.882 E3.64735
G1 X258.659 Y271.56 E3.66735
G1 X258.41 Y271.708 E3.67212
G1 X257.59 Y272.149 E3.68745
G1 X256.736 Y272.517 E3.70276
G1 X255.853 Y272.811 E3.71808
G1 X255.355 Y272.941 E3.72655
G1 X255.023 Y273.019 E3.73217
G1 X254.109 Y273.193 E3.74749
G1 X252.744 Y273.304 E3.77004
G1 X251.865 Y273.32 E3.78451
G1 X251.674 Y273.322 E3.78765
G1 X248.218 Y273.324 E3.84455
G1 X248.071 Y273.323 E3.84697
G1 X247.459 Y273.315 E3.85705
G1 X246.143 Y273.217 E3.87878
G1 X245.775 Y273.167 E3.88489
G1 X244.859 Y273.003 E3.90021
G1 X243.961 Y272.76 E3.91553
G1 X242.742 Y272.291 E3.93703
G1 X242.448 Y272.157 E3.94235
G1 X241.619 Y271.735 E3.95767
G1 X240.829 Y271.244 E3.97298
G1 X240.085 Y270.686 E3.98829
G1 X239.574 Y270.241 E3.99945
G1 X239.379 Y270.06 E4.00383
G1 X238.706 Y269.377 E4.01961
G1 X238.071 Y268.673 E4.03522
G1 X236.295 Y266.753 E4.07828
G1 X234.518 Y264.938 E4.1201
G1 X232.738 Y263.222 E4.16081
G1 X231.299 Y261.917 E4.19279
G1 X231.187 Y261.814 E4.19529
G1 X230.36 Y261.043 E4.21391
G1 X229.708 Y260.38 E4.22922
G1 X229.114 Y259.663 E4.24455
G1 X228.416 Y258.622 E4.26518
G1 X228.271 Y258.376 E4.26988
G1 X227.834 Y257.555 E4.2852
G1 X227.468 Y256.699 E4.30052
G1 X227.178 Y255.815 E4.31584
G1 X227.044 Y255.289 E4.32478
G1 X226.962 Y254.93 E4.33084
G1 X226.794 Y254.015 E4.34616
G1 X226.697 Y252.905 E4.3645
G1 X226.684 Y252.54 E4.37051
G1 X226.677 Y252.219 E4.3758
G1 X226.675 Y251.879 E4.3814
G1 X226.675 Y248.179 E4.44231
G1 X226.676 Y248.012 E4.44506
G1 X226.685 Y247.43 E4.45465
G1 X226.78 Y246.157 E4.47566
G1 X226.829 Y245.792 E4.48173
G1 X226.993 Y244.876 E4.49705
G1 X227.234 Y243.977 E4.51237
G1 X227.726 Y242.702 E4.53487
G1 X227.861 Y242.409 E4.54018
G1 X228.287 Y241.582 E4.5555
G1 X228.781 Y240.794 E4.57081
G1 X229.342 Y240.051 E4.58614
G1 X229.74 Y239.595 E4.5961
G1 X229.921 Y239.399 E4.60049
G1 X230.623 Y238.706 E4.61673
G1 X231.327 Y238.071 E4.63234
G1 X233.247 Y236.295 E4.6754
G1 X235.062 Y234.518 E4.71722
G1 X236.777 Y232.74 E4.75789
G1 X238.079 Y231.303 E4.78982
G1 X238.184 Y231.189 E4.79237
G1 X238.958 Y230.359 E4.81105
G0 F6000 X239.2 Y230.584
G1 F1200 X239.853 Y229.942 E4.82613
G1 X240.56 Y229.36 E4.84121
G1 X241.546 Y228.701 E4.86073
G1 X241.792 Y228.556 E4.86543
G1 X242.601 Y228.125 E4.88053
G1 X243.444 Y227.767 E4.8956
G1 X244.315 Y227.484 E4.91068
G1 X244.767 Y227.369 E4.91836
G1 X245.119 Y227.288 E4.92431
G1 X246.02 Y227.122 E4.93939
G1 X247.078 Y227.028 E4.95688
G1 X247.45 Y227.014 E4.96301
G1 X247.771 Y227.007 E4.96829
G1 X248.054 Y227.005 E4.97295
G1 X251.793 Y227.005 E5.03451
G1 X251.948 Y227.006 E5.03706
G1 X252.558 Y227.015 E5.04711
G1 X253.803 Y227.108 E5.06766
G1 X254.167 Y227.157 E5.07371
G1 X255.069 Y227.319 E5.0888
G1 X255.953 Y227.558 E5.10387
G1 X257.134 Y228.015 E5.12472
G1 X257.429 Y228.15 E5.13006
G1 X258.245 Y228.567 E5.14515
G1 X259.021 Y229.054 E5.16023
G1 X259.752 Y229.606 E5.17531
G1 X260.199 Y229.998 E5.1851
G1 X260.392 Y230.177 E5.18944
G1 X261.046 Y230.841 E5.20478
G1 X261.652 Y231.513 E5.21968
G1 X263.478 Y233.487 E5.26395
G1 X265.25 Y235.296 E5.30564
G1 X267.042 Y237.025 E5.34664
G1 X268.475 Y238.324 E5.37848
G1 X268.586 Y238.426 E5.38096
G1 X269.416 Y239.2 E5.39965
G1 X270.058 Y239.853 E5.41472
G1 X270.64 Y240.56 E5.4298
G1 X271.299 Y241.546 E5.44933
G1 X271.444 Y241.792 E5.45403
G1 X271.875 Y242.601 E5.46912
G1 X272.233 Y243.444 E5.4842
G1 X272.613 Y244.693 E5.50569
G1 X272.691 Y245.021 E5.51124
G1 X272.864 Y245.921 E5.52633
G1 X272.974 Y247.257 E5.5484
G1 X272.99 Y248.133 E5.56282
G1 X272.992 Y248.319 E5.56589
G1 X272.994 Y251.782 E5.6229
G1 X272.993 Y251.925 E5.62526
G1 X272.985 Y252.537 E5.63533
G1 X272.89 Y253.813 E5.6564
G1 X272.84 Y254.181 E5.66251
G1 X272.678 Y255.082 E5.67758
G1 X272.437 Y255.966 E5.69267
G1 X271.985 Y257.133 E5.71327
G1 X271.851 Y257.426 E5.71858
G1 X271.434 Y258.242 E5.73366
G1 X270.948 Y259.018 E5.74874
G1 X270.395 Y259.749 E5.76383
G1 X270.017 Y260.181 E5.77328
G1 X269.836 Y260.377 E5.77767
G1 X269.156 Y261.049 E5.79341
G1 X268.465 Y261.672 E5.80873
G1 X266.513 Y263.478 E5.85251
G1 X264.721 Y265.233 E5.89381
G1 X262.959 Y267.059 E5.93558
G1 X261.687 Y268.463 E5.96678
G1 X261.587 Y268.572 E5.96921
G1 X260.805 Y269.411 E5.98809
G1 X260.152 Y270.053 E6.00317
G1 X259.445 Y270.636 E6.01826
G1 X258.49 Y271.277 E6.03719
G1 X258.241 Y271.425 E6.04196
G1 X257.434 Y271.858 E6.05704
G1 X256.592 Y272.219 E6.07212
G1 X255.279 Y272.62 E6.09473
G1 X254.947 Y272.698 E6.10034
G1 X254.047 Y272.868 E6.11542
G1 X252.738 Y272.974 E6.13704
G1 X251.859 Y272.99 E6.15152
G1 X251.674 Y272.992 E6.15456
G1 X248.218 Y272.994 E6.21146
G1 X248.075 Y272.993 E6.21381
G1 X247.463 Y272.985 E6.22389
G1 X246.187 Y272.89 E6.24496
G1 X245.819 Y272.84 E6.25107
G1 X244.918 Y272.678 E6.26614
G1 X244.034 Y272.437 E6.28123
G1 X242.879 Y271.991 E6.30161
G1 X242.585 Y271.857 E6.30693
G1 X241.769 Y271.441 E6.32201
G1 X240.992 Y270.955 E6.3371
G1 X240.261 Y270.404 E6.35217
G1 X239.798 Y269.999 E6.3623
G1 X239.603 Y269.818 E6.36668
G1 X238.951 Y269.156 E6.38198
G1 X238.325 Y268.462 E6.39736
G1 X236.522 Y266.513 E6.44108
G1 X234.767 Y264.721 E6.48237
G1 X232.939 Y262.957 E6.52419
G1 X231.521 Y261.672 E6.5557
G1 X231.412 Y261.572 E6.55814
G1 X230.585 Y260.801 E6.57675
G1 X229.943 Y260.148 E6.59183
G1 X229.36 Y259.441 E6.60691
G1 X228.701 Y258.454 E6.62645
G1 X228.556 Y258.208 E6.63115
G1 X228.125 Y257.399 E6.64625
G1 X227.767 Y256.556 E6.66132
G1 X227.484 Y255.685 E6.6764
G1 X227.366 Y255.216 E6.68436
G1 X227.284 Y254.857 E6.69043
G1 X227.119 Y253.956 E6.70551
G1 X227.027 Y252.894 E6.72306
G1 X227.014 Y252.529 E6.72907
G1 X227.007 Y252.217 E6.73421
G1 X227.005 Y251.877 E6.73981
G1 X227.005 Y248.179 E6.80069
G1 X227.006 Y248.017 E6.80336
G1 X227.015 Y247.435 E6.81294
G1 X227.107 Y246.201 E6.83331
G1 X227.156 Y245.836 E6.83938
G1 X227.318 Y244.934 E6.85446
G1 X227.557 Y244.05 E6.86954
G1 X228.026 Y242.84 E6.89091
G1 X228.161 Y242.547 E6.89622
G1 X228.58 Y241.733 E6.91129
G1 X229.069 Y240.958 E6.92638
G1 X229.624 Y240.229 E6.94146
G1 X229.983 Y239.819 E6.95043
G1 X230.164 Y239.623 E6.95483
G1 X230.844 Y238.951 E6.97056
G1 X231.539 Y238.324 E6.98598
G1 X233.487 Y236.522 E7.02966
G1 X235.279 Y234.767 E7.07096
G1 X237.041 Y232.941 E7.11274
G1 X238.324 Y231.525 E7.1442
G1 X238.426 Y231.414 E7.14668
G1 X239.2 Y230.584 E7.16536
G0 F6000 X239.441 Y230.809
G1 F1200 X240.084 Y230.178 E7.18019
G1 X240.781 Y229.606 E7.19504
G1 X241.713 Y228.985 E7.21348
G1 X241.959 Y228.84 E7.21818
G1 X242.756 Y228.417 E7.23303
G1 X243.586 Y228.066 E7.24787
G1 X244.841 Y227.691 E7.26944
G1 X245.193 Y227.61 E7.27538
G1 X246.08 Y227.447 E7.29023
G1 X247.091 Y227.358 E7.30694
G1 X247.463 Y227.344 E7.31307
G1 X247.773 Y227.337 E7.31817
G1 X248.056 Y227.335 E7.32283
G1 X251.793 Y227.335 E7.38436
G1 X251.943 Y227.336 E7.38683
G1 X252.553 Y227.345 E7.39687
G1 X253.759 Y227.435 E7.41678
G1 X254.123 Y227.484 E7.42283
G1 X255.01 Y227.644 E7.43767
G1 X255.88 Y227.881 E7.45251
G1 X256.997 Y228.315 E7.47224
G1 X257.292 Y228.45 E7.47758
G1 X258.094 Y228.861 E7.49242
G1 X258.857 Y229.342 E7.50727
G1 X259.574 Y229.888 E7.52211
G1 X259.974 Y230.24 E7.53088
G1 X260.167 Y230.419 E7.53521
G1 X260.801 Y231.062 E7.55008
G1 X261.41 Y231.737 E7.56505
G1 X263.234 Y233.708 E7.60926
G1 X265.018 Y235.531 E7.65125
G1 X266.809 Y237.258 E7.69222
G1 X268.254 Y238.568 E7.72433
G1 X268.361 Y238.667 E7.72673
G1 X269.191 Y239.441 E7.74541
G1 X269.822 Y240.084 E7.76024
G1 X270.394 Y240.781 E7.77509
G1 X271.015 Y241.713 E7.79353
G1 X271.16 Y241.959 E7.79823
G1 X271.583 Y242.756 E7.81308
G1 X271.934 Y243.586 E7.82792
G1 X272.292 Y244.769 E7.84827
G1 X272.37 Y245.097 E7.85382
G1 X272.54 Y245.983 E7.86867
G1 X272.644 Y247.263 E7.88982
G1 X272.66 Y248.139 E7.90424
G1 X272.662 Y248.319 E7.90721
G1 X272.664 Y251.782 E7.96422
G1 X272.663 Y251.921 E7.96651
G1 X272.655 Y252.533 E7.97658
G1 X272.563 Y253.769 E7.99699
G1 X272.513 Y254.137 E8.0031
G1 X272.353 Y255.024 E8.01794
G1 X272.114 Y255.893 E8.03278
G1 X271.685 Y256.996 E8.05227
G1 X271.551 Y257.289 E8.05757
G1 X271.14 Y258.091 E8.07241
G1 X270.66 Y258.854 E8.08725
G1 X270.114 Y259.571 E8.10209
G1 X269.775 Y259.957 E8.11054
G1 X269.594 Y260.153 E8.11494
G1 X268.935 Y260.804 E8.13019
G1 X268.263 Y261.41 E8.14508
G1 X266.292 Y263.234 E8.1893
G1 X264.468 Y265.019 E8.23132
G1 X262.727 Y266.824 E8.2726
G1 X261.443 Y268.241 E8.30409
G1 X261.346 Y268.347 E8.30645
G1 X260.564 Y269.186 E8.32533
G1 X259.921 Y269.817 E8.34017
G1 X259.224 Y270.389 E8.35501
G1 X258.322 Y270.993 E8.37288
G1 X258.073 Y271.141 E8.37765
