;FLAVOR:Marlin
;TIME:3352
;Filament used: 1.04523m
;Layer height: 0.2
;MINX:123.845
;MINY:123.845
;MINZ:0.2
;MAXX:176.155
;MAXY:176.155
;MAXZ:77
;Generated with Cura_SteamEngine 4.2.1
M140 S50
M105
M190 S50
M104 S200
M105
M109 S200
M82 ;absolute extrusion mode
M201 X500.00 Y500.00 Z100.00 E5000.00 ;Setup machine max acceleration
M203 X500.00 Y500.00 Z10.00 E50.00 ;Setup machine max feedrate
M204 P500.00 R1000.00 T500.00 ;Setup Print/Retract/Travel acceleration
M205 X8.00 Y8.00 Z0.40 E5.00 ;Setup Jerk
M220 S100 ;Reset Feedrate
M221 S100 ;Reset Flowrate

G28 ;Home

G92 E0 ;Reset Extruder
G1 Z2.0 F3000 ;Move Z Axis up
G1 X10.1 Y20 Z0.28 F5000.0 ;Move to start position
G1 X10.1 Y200.0 Z0.28 F1500.0 E15 ;Draw the first line
G1 X10.4 Y200.0 Z0.28 F5000.0 ;Move to side a little
G1 X10.4 Y20 Z0.28 F1500.0 E30 ;Draw the second line
G92 E0 ;Reset Extruder
G1 Z2.0 F3000 ;Move Z Axis up

M141 S28
G92 E0
G92 E0
G1 F2700 E-5
;LAYER_COUNT:385
;LAYER:0
M107
G0 F6000 X127.943 Y128.098 Z0.2
;TYPE:SKIRT
G1 F2700 E0
G1 F1200 X128.159 Y127.882 E0.00838
G1 X128.456 Y127.593 E0.01975
G1 X129.16 Y126.964 E0.04566
G1 X129.915 Y126.396 E0.07158
G1 X131.026 Y125.724 E0.10721
G1 X131.488 Y125.48 E0.12155
G1 X131.762 Y125.34 E0.12999
G1 X132.135 Y125.156 E0.1414
G1 X132.999 Y124.774 E0.16732
G1 X133.892 Y124.467 E0.19324
G1 X135.153 Y124.171 E0.22878
G1 X135.669 Y124.081 E0.24315
G1 X135.99 Y124.03 E0.25207
G1 X136.405 Y123.97 E0.26357
G1 X137.665 Y123.86 E0.29828
G1 X137.964 Y123.851 E0.30649
G1 X138.3 Y123.846 E0.31571
G1 X161.293 Y123.845 E0.94663
G1 X161.453 Y123.846 E0.95102
G1 X162.151 Y123.856 E0.97017
G1 X163.348 Y123.938 E1.0031
G1 X163.65 Y123.975 E1.01144
G1 X164.194 Y124.055 E1.02653
G1 X164.807 Y124.161 E1.0436
G1 X165.73 Y124.361 E1.06952
G1 X166.632 Y124.639 E1.09542
G1 X167.766 Y125.112 E1.12913
G1 X168.235 Y125.339 E1.14343
G1 X168.561 Y125.504 E1.15345
G1 X168.94 Y125.703 E1.1652
G1 X169.757 Y126.177 E1.19112
G1 X170.53 Y126.718 E1.21701
G1 X171.533 Y127.584 E1.25337
G1 X171.902 Y127.943 E1.26749
G1 X172.118 Y128.159 E1.27588
G1 X172.407 Y128.456 E1.28725
G1 X173.036 Y129.16 E1.31315
G1 X173.604 Y129.915 E1.33908
G1 X174.276 Y131.026 E1.37471
G1 X174.52 Y131.488 E1.38904
G1 X174.66 Y131.762 E1.39749
G1 X174.844 Y132.135 E1.4089
G1 X175.226 Y132.999 E1.43482
G1 X175.533 Y133.892 E1.46073
G1 X175.829 Y135.153 E1.49627
G1 X175.919 Y135.669 E1.51065
G1 X175.969 Y135.982 E1.51934
G1 X176.029 Y136.395 E1.53079
G1 X176.14 Y137.666 E1.5658
G1 X176.149 Y137.967 E1.57407
G1 X176.154 Y138.3 E1.5832
G1 X176.155 Y161.293 E2.21412
G1 X176.154 Y161.453 E2.21851
G1 X176.144 Y162.15 E2.23764
G1 X176.063 Y163.342 E2.27042
G1 X176.026 Y163.645 E2.2788
G1 X175.945 Y164.194 E2.29403
G1 X175.839 Y164.807 E2.3111
G1 X175.639 Y165.73 E2.33701
G1 X175.361 Y166.632 E2.36291
G1 X174.888 Y167.766 E2.39663
G1 X174.661 Y168.235 E2.41092
G1 X174.496 Y168.561 E2.42095
G1 X174.297 Y168.94 E2.4327
G1 X173.823 Y169.757 E2.45861
G1 X173.282 Y170.53 E2.4845
G1 X172.416 Y171.533 E2.52086
G1 X172.057 Y171.902 E2.53499
G1 X171.841 Y172.118 E2.54337
G1 X171.544 Y172.407 E2.55474
G1 X170.84 Y173.036 E2.58065
G1 X170.085 Y173.604 E2.60657
G1 X168.974 Y174.276 E2.6422
G1 X168.512 Y174.52 E2.65654
G1 X168.238 Y174.66 E2.66498
G1 X167.865 Y174.844 E2.67639
G1 X167.001 Y175.226 E2.70232
G1 X166.108 Y175.533 E2.72823
G1 X164.847 Y175.829 E2.76377
G1 X164.331 Y175.919 E2.77814
G1 X164.01 Y175.97 E2.78706
G1 X163.595 Y176.03 E2.79857
G1 X162.335 Y176.14 E2.83327
G1 X162.036 Y176.149 E2.84148
G1 X161.7 Y176.154 E2.8507
G1 X138.707 Y176.155 E3.48162
G1 X138.547 Y176.154 E3.48601
G1 X137.85 Y176.144 E3.50514
G1 X136.658 Y176.063 E3.53792
G1 X136.355 Y176.026 E3.5463
G1 X135.806 Y175.945 E3.56152
G1 X135.193 Y175.839 E3.57859
G1 X134.27 Y175.639 E3.60451
G1 X133.368 Y175.361 E3.63041
G1 X132.234 Y174.888 E3.66412
G1 X131.765 Y174.661 E3.67842
G1 X131.439 Y174.496 E3.68845
G1 X131.06 Y174.297 E3.70019
G1 X130.243 Y173.823 E3.72611
G1 X129.47 Y173.282 E3.752
G1 X128.467 Y172.416 E3.78836
G1 X128.098 Y172.057 E3.80249
G1 X127.869 Y171.828 E3.81137
G1 X127.58 Y171.53 E3.82276
G1 X126.952 Y170.825 E3.84867
G1 X126.386 Y170.069 E3.87458
G1 X125.729 Y168.982 E3.90944
G1 X125.485 Y168.521 E3.92375
G1 X125.34 Y168.238 E3.93247
G1 X125.155 Y167.863 E3.94395
G1 X124.774 Y166.999 E3.96986
G1 X124.466 Y166.106 E3.99578
G1 X124.167 Y164.827 E4.03182
G1 X124.073 Y164.283 E4.04697
G1 X124.022 Y163.962 E4.05589
G1 X123.967 Y163.577 E4.06656
G1 X123.86 Y162.335 E4.10076
G1 X123.851 Y162.036 E4.10897
G1 X123.846 Y161.7 E4.11819
G1 X123.845 Y138.707 E4.74911
G1 X123.846 Y138.547 E4.7535
G1 X123.856 Y137.85 E4.77263
G1 X123.937 Y136.658 E4.80541
G1 X123.974 Y136.355 E4.81379
G1 X124.055 Y135.806 E4.82902
G1 X124.161 Y135.193 E4.84609
G1 X124.361 Y134.27 E4.872
G1 X124.639 Y133.368 E4.8979
G1 X125.112 Y132.234 E4.93162
G1 X125.339 Y131.765 E4.94591
G1 X125.504 Y131.439 E4.95594
G1 X125.703 Y131.06 E4.96769
G1 X126.177 Y130.243 E4.9936
G1 X126.718 Y129.47 E5.01949
G1 X127.584 Y128.467 E5.05585
G1 X127.943 Y128.098 E5.06998
G0 F6000 X128.179 Y128.328
G1 F1200 X128.389 Y128.119 E5.07811
G1 X128.686 Y127.83 E5.08948
G1 X129.38 Y127.21 E5.11502
G1 X130.125 Y126.653 E5.14054
G1 X131.18 Y126.016 E5.17436
G1 X131.642 Y125.772 E5.18869
G1 X131.908 Y125.636 E5.19689
G1 X132.281 Y125.452 E5.2083
G1 X133.132 Y125.077 E5.23382
G1 X134.013 Y124.776 E5.25937
G1 X135.21 Y124.496 E5.2931
G1 X135.726 Y124.406 E5.30747
G1 X136.037 Y124.356 E5.31612
G1 X136.452 Y124.296 E5.32762
G1 X137.675 Y124.19 E5.36131
G1 X137.974 Y124.181 E5.36951
G1 X138.3 Y124.176 E5.37846
G1 X161.293 Y124.175 E6.00938
G1 X161.448 Y124.176 E6.01363
G1 X162.146 Y124.186 E6.03279
G1 X163.307 Y124.265 E6.06472
G1 X163.609 Y124.302 E6.07307
G1 X164.137 Y124.38 E6.08771
G1 X164.75 Y124.486 E6.10478
G1 X165.66 Y124.684 E6.13034
G1 X166.548 Y124.959 E6.15585
G1 X167.622 Y125.409 E6.1878
G1 X168.091 Y125.636 E6.2021
G1 X168.407 Y125.796 E6.21181
G1 X168.786 Y125.995 E6.22356
G1 X169.591 Y126.462 E6.2491
G1 X170.352 Y126.997 E6.27462
G1 X171.303 Y127.82 E6.30913
G1 X171.672 Y128.179 E6.32326
G1 X171.881 Y128.389 E6.33139
G1 X172.17 Y128.686 E6.34276
G1 X172.79 Y129.38 E6.3683
G1 X173.347 Y130.125 E6.39382
G1 X173.984 Y131.18 E6.42764
G1 X174.228 Y131.642 E6.44197
G1 X174.364 Y131.908 E6.45017
G1 X174.548 Y132.281 E6.46158
G1 X174.923 Y133.132 E6.4871
G1 X175.224 Y134.013 E6.51265
G1 X175.504 Y135.21 E6.54638
G1 X175.594 Y135.726 E6.56075
G1 X175.643 Y136.03 E6.5692
G1 X175.703 Y136.443 E6.58065
G1 X175.81 Y137.675 E6.61458
G1 X175.819 Y137.976 E6.62285
G1 X175.824 Y138.3 E6.63174
G1 X175.825 Y161.293 E7.26266
G1 X175.824 Y161.448 E7.26691
G1 X175.814 Y162.145 E7.28604
G1 X175.735 Y163.302 E7.31786
G1 X175.698 Y163.605 E7.32624
G1 X175.62 Y164.137 E7.34099
G1 X175.514 Y164.75 E7.35806
G1 X175.316 Y165.66 E7.38361
G1 X175.041 Y166.548 E7.40912
G1 X174.591 Y167.622 E7.44108
G1 X174.364 Y168.091 E7.45537
G1 X174.204 Y168.407 E7.46509
G1 X174.005 Y168.786 E7.47684
G1 X173.538 Y169.591 E7.50237
G1 X173.003 Y170.352 E7.5279
G1 X172.18 Y171.303 E7.56241
G1 X171.821 Y171.672 E7.57654
G1 X171.611 Y171.881 E7.58467
G1 X171.314 Y172.17 E7.59604
G1 X170.62 Y172.79 E7.62157
G1 X169.875 Y173.347 E7.6471
G1 X168.82 Y173.984 E7.68091
G1 X168.358 Y174.228 E7.69525
G1 X168.092 Y174.364 E7.70345
G1 X167.719 Y174.548 E7.71486
G1 X166.868 Y174.923 E7.74038
G1 X165.987 Y175.224 E7.76592
G1 X164.79 Y175.504 E7.79966
G1 X164.274 Y175.594 E7.81403
G1 X163.963 Y175.644 E7.82267
G1 X163.548 Y175.704 E7.83418
G1 X162.325 Y175.81 E7.86786
G1 X162.026 Y175.819 E7.87607
G1 X161.7 Y175.824 E7.88502
G1 X138.707 Y175.825 E8.51594
G1 X138.552 Y175.824 E8.52019
G1 X137.855 Y175.814 E8.53932
G1 X136.698 Y175.735 E8.57114
G1 X136.395 Y175.698 E8.57951
G1 X135.863 Y175.62 E8.59427
G1 X135.25 Y175.514 E8.61134
G1 X134.34 Y175.316 E8.63689
G1 X133.452 Y175.041 E8.6624
G1 X132.378 Y174.591 E8.69435
G1 X131.909 Y174.364 E8.70865
G1 X131.593 Y174.204 E8.71837
G1 X131.214 Y174.005 E8.73011
G1 X130.409 Y173.538 E8.75565
G1 X129.648 Y173.003 E8.78118
G1 X128.697 Y172.18 E8.81569
G1 X128.328 Y171.821 E8.82981
G1 X128.106 Y171.598 E8.83845
G1 X127.817 Y171.3 E8.84984
G1 X127.199 Y170.605 E8.87536
G1 X126.642 Y169.859 E8.9009
G1 X126.02 Y168.828 E8.93394
G1 X125.776 Y168.367 E8.94826
G1 X125.636 Y168.092 E8.95672
G1 X125.451 Y167.717 E8.9682
G1 X125.076 Y166.866 E8.99372
G1 X124.775 Y165.986 E9.01924
G1 X124.492 Y164.771 E9.05347
G1 X124.398 Y164.227 E9.06862
G1 X124.349 Y163.915 E9.07728
G1 X124.294 Y163.53 E9.08795
G1 X124.19 Y162.325 E9.12114
G1 X124.181 Y162.026 E9.12935
G1 X124.176 Y161.7 E9.1383
G1 X124.175 Y138.707 E9.76921
G1 X124.176 Y138.552 E9.77347
G1 X124.186 Y137.855 E9.7926
G1 X124.265 Y136.698 E9.82442
G1 X124.302 Y136.395 E9.83279
G1 X124.38 Y135.863 E9.84755
G1 X124.486 Y135.25 E9.86462
G1 X124.684 Y134.34 E9.89017
G1 X124.959 Y133.452 E9.91568
G1 X125.409 Y132.378 E9.94763
G1 X125.636 Y131.909 E9.96193
G1 X125.796 Y131.593 E9.97165
G1 X125.995 Y131.214 E9.98339
G1 X126.462 Y130.409 E10.00893
G1 X126.997 Y129.648 E10.03446
G1 X127.82 Y128.697 E10.06897
G1 X128.179 Y128.328 E10.08309
G0 F6000 X128.416 Y128.559
G1 F1200 X128.619 Y128.355 E10.09099
G1 X128.916 Y128.066 E10.10236
G1 X129.6 Y127.457 E10.12749
G1 X130.334 Y126.909 E10.15263
G1 X131.334 Y126.308 E10.18464
G1 X131.796 Y126.064 E10.19898
G1 X132.054 Y125.932 E10.20693
G1 X132.427 Y125.748 E10.21834
G1 X133.265 Y125.379 E10.24347
G1 X134.133 Y125.084 E10.26862
G1 X135.267 Y124.821 E10.30056
G1 X135.783 Y124.731 E10.31494
G1 X136.084 Y124.683 E10.3233
G1 X136.499 Y124.623 E10.33481
G1 X137.685 Y124.52 E10.36747
G1 X137.984 Y124.511 E10.37568
G1 X138.3 Y124.506 E10.38435
G1 X161.293 Y124.505 E11.01527
G1 X161.443 Y124.506 E11.01939
G1 X162.141 Y124.516 E11.03854
G1 X163.267 Y124.593 E11.06951
G1 X163.569 Y124.63 E11.07786
G1 X164.081 Y124.705 E11.09206
G1 X164.694 Y124.811 E11.10913
G1 X165.589 Y125.007 E11.13427
G1 X166.464 Y125.279 E11.15941
G1 X167.478 Y125.706 E11.1896
G1 X167.947 Y125.933 E11.2039
G1 X168.254 Y126.088 E11.21334
G1 X168.633 Y126.287 E11.22508
G1 X169.425 Y126.748 E11.25023
G1 X170.173 Y127.276 E11.27535
G1 X171.072 Y128.057 E11.30803
G1 X171.441 Y128.416 E11.32215
G1 X171.645 Y128.619 E11.33005
G1 X171.934 Y128.916 E11.34142
G1 X172.543 Y129.6 E11.36655
G1 X173.091 Y130.334 E11.39169
G1 X173.692 Y131.334 E11.4237
G1 X173.936 Y131.796 E11.43804
G1 X174.068 Y132.054 E11.44599
G1 X174.252 Y132.427 E11.4574
G1 X174.621 Y133.265 E11.48253
G1 X174.916 Y134.133 E11.50768
G1 X175.179 Y135.267 E11.53962
G1 X175.269 Y135.783 E11.554
G1 X175.316 Y136.077 E11.56217
G1 X175.376 Y136.49 E11.57362
G1 X175.48 Y137.685 E11.60653
G1 X175.489 Y137.986 E11.6148
G1 X175.494 Y138.3 E11.62341
G1 X175.495 Y161.293 E12.25433
G1 X175.494 Y161.444 E12.25848
G1 X175.484 Y162.141 E12.2776
G1 X175.408 Y163.262 E12.30843
G1 X175.371 Y163.565 E12.31681
G1 X175.295 Y164.081 E12.33112
G1 X175.189 Y164.694 E12.34819
G1 X174.993 Y165.589 E12.37333
G1 X174.721 Y166.464 E12.39847
G1 X174.294 Y167.478 E12.42866
G1 X174.067 Y167.947 E12.44296
G1 X173.912 Y168.254 E12.4524
G1 X173.713 Y168.633 E12.46414
G1 X173.252 Y169.425 E12.48929
G1 X172.724 Y170.173 E12.51441
G1 X171.943 Y171.072 E12.54709
G1 X171.584 Y171.441 E12.56122
G1 X171.381 Y171.645 E12.56911
G1 X171.084 Y171.934 E12.58048
G1 X170.4 Y172.543 E12.60561
G1 X169.666 Y173.091 E12.63075
G1 X168.666 Y173.692 E12.66276
G1 X168.204 Y173.936 E12.6771
G1 X167.946 Y174.068 E12.68505
G1 X167.573 Y174.252 E12.69646
G1 X166.735 Y174.621 E12.72159
G1 X165.867 Y174.916 E12.74675
G1 X164.733 Y175.179 E12.77869
G1 X164.217 Y175.269 E12.79306
G1 X163.916 Y175.317 E12.80142
G1 X163.501 Y175.377 E12.81293
G1 X162.315 Y175.48 E12.8456
G1 X162.016 Y175.489 E12.8538
G1 X161.7 Y175.494 E12.86248
G1 X138.707 Y175.495 E13.49339
G1 X138.556 Y175.494 E13.49754
G1 X137.859 Y175.484 E13.51667
G1 X136.738 Y175.408 E13.5475
G1 X136.435 Y175.371 E13.55587
G1 X135.919 Y175.295 E13.57018
G1 X135.306 Y175.189 E13.58725
G1 X134.411 Y174.993 E13.61239
G1 X133.536 Y174.721 E13.63754
G1 X132.522 Y174.294 E13.66773
G1 X132.053 Y174.067 E13.68202
G1 X131.746 Y173.912 E13.69146
G1 X131.367 Y173.713 E13.70321
G1 X130.575 Y173.252 E13.72835
G1 X129.827 Y172.724 E13.75348
G1 X128.928 Y171.943 E13.78615
G1 X128.559 Y171.584 E13.80028
G1 X128.343 Y171.368 E13.80866
G1 X128.054 Y171.07 E13.82005
G1 X127.446 Y170.386 E13.84516
G1 X126.899 Y169.65 E13.87033
G1 X126.312 Y168.674 E13.90158
G1 X126.068 Y168.213 E13.91589
G1 X125.932 Y167.946 E13.92411
G1 X125.747 Y167.571 E13.93559
G1 X125.378 Y166.733 E13.96071
G1 X125.083 Y165.865 E13.98587
G1 X124.817 Y164.715 E14.01826
G1 X124.723 Y164.171 E14.0334
G1 X124.675 Y163.868 E14.04182
G1 X124.62 Y163.483 E14.05249
G1 X124.52 Y162.315 E14.08466
G1 X124.511 Y162.016 E14.09287
G1 X124.506 Y161.7 E14.10154
G1 X124.505 Y138.707 E14.73246
G1 X124.506 Y138.556 E14.7366
G1 X124.516 Y137.859 E14.75573
G1 X124.592 Y136.738 E14.78656
G1 X124.629 Y136.435 E14.79494
G1 X124.705 Y135.919 E14.80925
G1 X124.811 Y135.306 E14.82632
G1 X125.007 Y134.411 E14.85146
G1 X125.279 Y133.536 E14.8766
G1 X125.706 Y132.522 E14.90679
G1 X125.933 Y132.053 E14.92109
G1 X126.088 Y131.746 E14.93053
G1 X126.287 Y131.367 E14.94227
G1 X126.748 Y130.575 E14.96742
G1 X127.276 Y129.827 E14.99254
G1 X128.057 Y128.928 E15.02522
G1 X128.416 Y128.559 E15.03934
G0 F6000 X128.652 Y128.789
G1 F1200 X128.849 Y128.592 E15.04699
G1 X129.146 Y128.303 E15.05836
G1 X129.819 Y127.703 E15.0831
G1 X130.543 Y127.166 E15.10783
G1 X131.488 Y126.6 E15.13806
G1 X131.95 Y126.356 E15.1524
G1 X132.2 Y126.228 E15.1601
G1 X132.573 Y126.044 E15.17152
G1 X133.398 Y125.681 E15.19625
G1 X134.253 Y125.393 E15.221
G1 X135.323 Y125.146 E15.25114
G1 X135.839 Y125.056 E15.26551
G1 X136.131 Y125.01 E15.27362
G1 X136.546 Y124.95 E15.28513
G1 X137.695 Y124.85 E15.31677
G1 X137.994 Y124.841 E15.32498
G1 X138.3 Y124.836 E15.33338
G1 X161.293 Y124.835 E15.9643
G1 X161.439 Y124.836 E15.9683
G1 X162.137 Y124.846 E15.98746
G1 X163.227 Y124.92 E16.01744
G1 X163.529 Y124.957 E16.02579
G1 X164.025 Y125.031 E16.03955
G1 X164.638 Y125.137 E16.05662
G1 X165.519 Y125.33 E16.08136
G1 X166.379 Y125.6 E16.1061
G1 X167.334 Y126.003 E16.13454
G1 X167.803 Y126.23 E16.14884
G1 X168.101 Y126.38 E16.15799
G1 X168.48 Y126.579 E16.16974
G1 X169.258 Y127.033 E16.19446
G1 X169.994 Y127.555 E16.21921
G1 X170.842 Y128.293 E16.25006
G1 X171.211 Y128.652 E16.26419
G1 X171.408 Y128.849 E16.27183
G1 X171.697 Y129.146 E16.2832
G1 X172.297 Y129.819 E16.30794
G1 X172.834 Y130.543 E16.33268
G1 X173.4 Y131.488 E16.3629
G1 X173.644 Y131.95 E16.37724
G1 X173.772 Y132.2 E16.38495
G1 X173.956 Y132.573 E16.39636
G1 X174.319 Y133.398 E16.42109
G1 X174.607 Y134.253 E16.44585
G1 X174.854 Y135.323 E16.47598
G1 X174.944 Y135.839 E16.49035
G1 X174.989 Y136.125 E16.4983
G1 X175.049 Y136.538 E16.50975
G1 X175.15 Y137.695 E16.54162
G1 X175.159 Y137.996 E16.54988
G1 X175.164 Y138.3 E16.55822
G1 X175.165 Y161.293 E17.18914
G1 X175.164 Y161.439 E17.19315
G1 X175.154 Y162.136 E17.21228
G1 X175.08 Y163.222 E17.24214
G1 X175.043 Y163.525 E17.25052
G1 X174.969 Y164.025 E17.26439
G1 X174.863 Y164.638 E17.28146
G1 X174.67 Y165.519 E17.30621
G1 X174.4 Y166.379 E17.33094
G1 X173.997 Y167.334 E17.35938
G1 X173.77 Y167.803 E17.37368
G1 X173.62 Y168.101 E17.38283
G1 X173.421 Y168.48 E17.39458
G1 X172.967 Y169.258 E17.4193
G1 X172.445 Y169.994 E17.44406
G1 X171.707 Y170.842 E17.4749
G1 X171.348 Y171.211 E17.48903
G1 X171.151 Y171.408 E17.49668
G1 X170.854 Y171.697 E17.50805
G1 X170.181 Y172.297 E17.53279
G1 X169.457 Y172.834 E17.55752
G1 X168.512 Y173.4 E17.58775
G1 X168.05 Y173.644 E17.60208
G1 X167.8 Y173.772 E17.60979
G1 X167.427 Y173.956 E17.6212
G1 X166.602 Y174.319 E17.64593
G1 X165.747 Y174.607 E17.67069
G1 X164.677 Y174.854 E17.70082
G1 X164.161 Y174.944 E17.7152
G1 X163.869 Y174.99 E17.72331
G1 X163.454 Y175.05 E17.73481
G1 X162.305 Y175.15 E17.76646
G1 X162.006 Y175.159 E17.77467
G1 X161.7 Y175.164 E17.78307
G1 X138.707 Y175.165 E18.41398
G1 X138.561 Y175.164 E18.41799
G1 X137.864 Y175.154 E18.43712
