;FLAVOR:Marlin
;TIME:842
;Filament used: 0.266755m
;Layer height: 0.2
;MINX:126.345
;MINY:126.345
;MINZ:0.2
;MAXX:173.654
;MAXY:173.654
;MAXZ:7
;Generated with Cura_SteamEngine 4.2.1
M140 S50
M105
M190 S50
M104 S200
M105
M109 S200
M82 ;absolute extrusion mode
M201 X500.00 Y500.00 Z100.00 E5000.00 ;Setup machine max acceleration
M203 X500.00 Y500.00 Z10.00 E50.00 ;Setup machine max feedrate
M204 P500.00 R1000.00 T500.00 ;Setup Print/Retract/Travel acceleration
M205 X8.00 Y8.00 Z0.40 E5.00 ;Setup Jerk
M220 S100 ;Reset Feedrate
M221 S100 ;Reset Flowrate

G28 ;Home

G92 E0 ;Reset Extruder
G1 Z2.0 F3000 ;Move Z Axis up
G1 X10.1 Y20 Z0.28 F5000.0 ;Move to start position
G1 X10.1 Y200.0 Z0.28 F1500.0 E15 ;Draw the first line
G1 X10.4 Y200.0 Z0.28 F5000.0 ;Move to side a little
G1 X10.4 Y20 Z0.28 F1500.0 E30 ;Draw the second line
G92 E0 ;Reset Extruder
G1 Z2.0 F3000 ;Move Z Axis up

M141 S28
G92 E0
G92 E0
G1 F2700 E-5
;LAYER_COUNT:35
;LAYER:0
M107
G0 F6000 X130.315 Y138.538 Z0.2
;TYPE:SKIRT
G1 F2700 E0
G1 F1200 X130.649 Y138.228 E0.0125
G1 X130.781 Y138.108 E0.0174
G1 X132.049 Y136.968 E0.06419
G1 X133.886 Y135.219 E0.13379
G1 X135.65 Y133.442 E0.20249
G1 X137.401 Y131.576 E0.27271
G1 X138.552 Y130.311 E0.31964
G1 X139.216 Y129.64 E0.34554
G1 X139.935 Y129.028 E0.37145
G1 X140.393 Y128.689 E0.38708
G1 X140.705 Y128.47 E0.39754
G1 X141.501 Y127.96 E0.42348
G1 X142.336 Y127.52 E0.44938
G1 X143.206 Y127.152 E0.4753
G1 X144.417 Y126.776 E0.5101
G1 X144.722 Y126.7 E0.51872
G1 X145.647 Y126.511 E0.54463
G1 X146.585 Y126.4 E0.57054
G1 X147.068 Y126.375 E0.58382
G1 X147.799 Y126.352 E0.60388
G1 X148.147 Y126.346 E0.61343
G1 X151.79 Y126.345 E0.7134
G1 X151.958 Y126.346 E0.71801
G1 X152.568 Y126.355 E0.73475
G1 X153.883 Y126.453 E0.77093
G1 X154.264 Y126.504 E0.78148
G1 X155.194 Y126.668 E0.80739
G1 X156.107 Y126.911 E0.83331
G1 X157.404 Y127.407 E0.87142
G1 X157.615 Y127.503 E0.87778
G1 X158.457 Y127.93 E0.90368
G1 X159.26 Y128.427 E0.9296
G1 X159.883 Y128.881 E0.95075
G1 X160.069 Y129.027 E0.95724
G1 X160.786 Y129.641 E0.98314
G1 X161.263 Y130.113 E1.00155
G1 X161.674 Y130.545 E1.01791
G1 X161.887 Y130.775 E1.02652
G1 X163.046 Y132.063 E1.07406
G1 X164.781 Y133.886 E1.14312
G1 X166.557 Y135.649 E1.21178
G1 X168.424 Y137.401 E1.28204
G1 X169.689 Y138.552 E1.32897
G1 X170.36 Y139.216 E1.35487
G1 X170.972 Y139.935 E1.38078
G1 X171.3 Y140.377 E1.39588
G1 X171.517 Y140.685 E1.40622
G1 X172.028 Y141.48 E1.43215
G1 X172.47 Y142.314 E1.45805
G1 X172.839 Y143.184 E1.48398
G1 X173.212 Y144.371 E1.51812
G1 X173.29 Y144.679 E1.52684
G1 X173.483 Y145.604 E1.55277
G1 X173.616 Y146.849 E1.58713
G1 X173.633 Y147.182 E1.59628
G1 X173.648 Y147.734 E1.61143
G1 X173.654 Y151.786 E1.72261
G1 X173.653 Y151.935 E1.7267
G1 X173.646 Y152.525 E1.74289
G1 X173.547 Y153.88 E1.78017
G1 X173.494 Y154.274 E1.79108
G1 X173.329 Y155.204 E1.817
G1 X173.086 Y156.117 E1.84292
G1 X172.586 Y157.421 E1.88124
G1 X172.491 Y157.629 E1.88752
G1 X172.062 Y158.471 E1.91345
G1 X171.564 Y159.274 E1.93938
G1 X171.119 Y159.883 E1.96007
G1 X170.973 Y160.069 E1.96656
G1 X170.359 Y160.786 E1.99246
G1 X169.889 Y161.261 E2.0108
G1 X169.453 Y161.676 E2.02732
G1 X169.219 Y161.892 E2.03605
G1 X167.951 Y163.032 E2.08284
G1 X166.114 Y164.781 E2.15244
G1 X164.35 Y166.558 E2.22115
G1 X162.599 Y168.424 E2.29136
G1 X161.448 Y169.689 E2.33829
G1 X160.784 Y170.36 E2.36419
G1 X160.065 Y170.972 E2.3901
G1 X159.623 Y171.3 E2.40521
G1 X159.315 Y171.517 E2.41554
G1 X158.52 Y172.028 E2.44148
G1 X157.686 Y172.47 E2.46738
G1 X156.816 Y172.839 E2.49331
G1 X155.629 Y173.212 E2.52745
G1 X155.321 Y173.29 E2.53617
G1 X154.396 Y173.483 E2.56209
G1 X153.139 Y173.617 E2.59678
G1 X152.799 Y173.634 E2.60612
G1 X152.258 Y173.648 E2.62097
G1 X148.193 Y173.654 E2.73251
G1 X148.04 Y173.653 E2.73671
G1 X147.47 Y173.646 E2.75235
G1 X146.12 Y173.547 E2.7895
G1 X145.726 Y173.494 E2.80041
G1 X144.796 Y173.329 E2.82632
G1 X143.883 Y173.086 E2.85225
G1 X142.579 Y172.586 E2.89057
G1 X142.371 Y172.491 E2.89684
G1 X141.529 Y172.062 E2.92277
G1 X140.726 Y171.564 E2.9487
G1 X140.117 Y171.119 E2.9694
G1 X139.931 Y170.973 E2.97589
G1 X139.214 Y170.359 E3.00179
G1 X138.739 Y169.889 E3.02012
G1 X138.324 Y169.453 E3.03664
G1 X138.108 Y169.219 E3.04538
G1 X136.968 Y167.951 E3.09217
G1 X135.219 Y166.114 E3.16177
G1 X133.442 Y164.35 E3.23047
G1 X131.576 Y162.599 E3.30069
G1 X130.311 Y161.448 E3.34762
G1 X129.64 Y160.784 E3.37352
G1 X129.028 Y160.065 E3.39943
G1 X128.7 Y159.623 E3.41453
G1 X128.483 Y159.315 E3.42487
G1 X127.972 Y158.52 E3.4508
G1 X127.53 Y157.686 E3.4767
G1 X127.161 Y156.816 E3.50263
G1 X126.786 Y155.62 E3.53702
G1 X126.708 Y155.311 E3.54577
G1 X126.516 Y154.386 E3.57169
G1 X126.403 Y153.449 E3.59759
G1 X126.374 Y152.924 E3.61202
G1 X126.351 Y152.177 E3.63252
G1 X126.346 Y151.878 E3.64073
G1 X126.345 Y151.623 E3.64773
G1 X126.345 Y148.18 E3.7422
G1 X126.346 Y148.008 E3.74692
G1 X126.355 Y147.425 E3.76292
G1 X126.452 Y146.121 E3.7988
G1 X126.503 Y145.739 E3.80938
G1 X126.668 Y144.809 E3.83529
G1 X126.91 Y143.896 E3.86121
G1 X127.415 Y142.577 E3.89997
G1 X127.527 Y142.332 E3.90736
G1 X127.955 Y141.491 E3.93325
G1 X128.454 Y140.688 E3.95919
G1 X129.018 Y139.931 E3.9851
G1 X129.406 Y139.479 E4.00144
G1 X129.638 Y139.223 E4.01092
G1 X130.315 Y138.538 E4.03735
G0 F6000 X130.54 Y138.78
G1 F1200 X130.874 Y138.47 E4.04985
G1 X131.001 Y138.354 E4.05457
G1 X132.263 Y137.22 E4.10113
G1 X134.114 Y135.457 E4.17127
G1 X135.89 Y133.667 E4.24046
G1 X137.653 Y131.79 E4.31112
G1 X138.796 Y130.533 E4.35774
G1 X139.451 Y129.873 E4.38325
G1 X140.16 Y129.271 E4.40878
G1 X140.583 Y128.959 E4.4232
G1 X140.895 Y128.74 E4.43366
G1 X141.679 Y128.239 E4.45919
G1 X142.503 Y127.806 E4.48473
G1 X143.361 Y127.447 E4.51025
G1 X144.497 Y127.096 E4.54288
G1 X144.802 Y127.02 E4.5515
G1 X145.713 Y126.834 E4.57701
G1 X147.079 Y126.704 E4.61467
G1 X147.81 Y126.681 E4.63473
G1 X148.147 Y126.676 E4.64398
G1 X151.79 Y126.675 E4.74395
G1 X151.953 Y126.676 E4.74842
G1 X152.563 Y126.685 E4.76516
G1 X153.839 Y126.78 E4.80027
G1 X154.22 Y126.831 E4.81082
G1 X155.136 Y126.994 E4.83635
G1 X156.035 Y127.235 E4.86188
G1 X157.267 Y127.707 E4.89809
G1 X157.478 Y127.803 E4.90445
G1 X158.307 Y128.224 E4.92996
G1 X159.098 Y128.715 E4.95551
G1 X159.679 Y129.141 E4.97527
G1 X159.865 Y129.287 E4.98176
G1 X160.571 Y129.892 E5.00728
G1 X161.024 Y130.341 E5.02478
G1 X161.435 Y130.773 E5.04114
G1 X161.641 Y130.996 E5.04947
G1 X162.778 Y132.26 E5.09612
G1 X164.543 Y134.114 E5.16636
G1 X166.314 Y135.872 E5.23483
G1 X168.244 Y137.683 E5.30745
G1 X169.467 Y138.796 E5.35283
G1 X170.127 Y139.451 E5.37834
G1 X170.729 Y140.16 E5.40387
G1 X171.03 Y140.567 E5.41776
G1 X171.247 Y140.875 E5.42809
G1 X171.75 Y141.658 E5.45363
G1 X172.184 Y142.481 E5.47916
G1 X172.545 Y143.339 E5.5047
G1 X172.892 Y144.452 E5.53669
G1 X172.97 Y144.76 E5.54541
G1 X173.159 Y145.671 E5.57094
G1 X173.287 Y146.866 E5.60392
G1 X173.304 Y147.199 E5.61307
G1 X173.318 Y147.735 E5.62778
G1 X173.324 Y151.787 E5.73897
G1 X173.323 Y151.931 E5.74292
G1 X173.316 Y152.521 E5.75911
G1 X173.22 Y153.836 E5.79529
G1 X173.167 Y154.23 E5.8062
G1 X173.004 Y155.146 E5.83173
G1 X172.762 Y156.045 E5.85727
G1 X172.286 Y157.284 E5.89369
G1 X172.191 Y157.492 E5.89997
G1 X171.768 Y158.321 E5.9255
G1 X171.276 Y159.111 E5.95104
G1 X170.859 Y159.679 E5.97038
G1 X170.713 Y159.865 E5.97687
G1 X170.108 Y160.571 E6.00238
G1 X169.661 Y161.022 E6.0198
G1 X169.225 Y161.437 E6.03632
G1 X168.999 Y161.646 E6.04477
G1 X167.737 Y162.78 E6.09132
G1 X165.886 Y164.543 E6.16146
G1 X164.11 Y166.333 E6.23065
G1 X162.347 Y168.21 E6.30131
G1 X161.204 Y169.467 E6.34793
G1 X160.549 Y170.127 E6.37345
G1 X159.84 Y170.729 E6.39897
G1 X159.433 Y171.03 E6.41286
G1 X159.125 Y171.247 E6.4232
G1 X158.342 Y171.75 E6.44873
G1 X157.519 Y172.184 E6.47426
G1 X156.661 Y172.545 E6.49981
G1 X155.548 Y172.892 E6.5318
G1 X155.24 Y172.97 E6.54052
G1 X154.329 Y173.159 E6.56605
G1 X153.123 Y173.287 E6.59932
G1 X152.783 Y173.304 E6.60866
G1 X152.258 Y173.318 E6.62308
G1 X148.193 Y173.324 E6.73462
G1 X148.044 Y173.323 E6.73871
G1 X147.474 Y173.316 E6.75435
G1 X146.164 Y173.22 E6.79039
G1 X145.77 Y173.167 E6.8013
G1 X144.854 Y173.004 E6.82683
G1 X143.955 Y172.762 E6.85237
G1 X142.716 Y172.286 E6.88879
G1 X142.508 Y172.191 E6.89507
G1 X141.679 Y171.768 E6.92061
G1 X140.889 Y171.276 E6.94614
G1 X140.321 Y170.859 E6.96548
G1 X140.135 Y170.713 E6.97197
G1 X139.429 Y170.108 E6.99748
G1 X138.978 Y169.661 E7.0149
G1 X138.563 Y169.225 E7.03142
G1 X138.354 Y168.999 E7.03987
G1 X137.22 Y167.737 E7.08642
G1 X135.457 Y165.886 E7.15656
G1 X133.667 Y164.11 E7.22576
G1 X131.79 Y162.347 E7.29642
G1 X130.533 Y161.204 E7.34304
G1 X129.873 Y160.549 E7.36855
G1 X129.271 Y159.84 E7.39407
G1 X128.97 Y159.433 E7.40796
G1 X128.753 Y159.125 E7.4183
G1 X128.25 Y158.342 E7.44384
G1 X127.816 Y157.519 E7.46937
G1 X127.455 Y156.661 E7.49491
G1 X127.106 Y155.539 E7.52715
G1 X127.028 Y155.23 E7.5359
G1 X126.839 Y154.319 E7.56143
G1 X126.73 Y153.396 E7.58693
G1 X126.704 Y152.914 E7.60017
G1 X126.681 Y152.167 E7.62068
G1 X126.676 Y151.876 E7.62867
G1 X126.675 Y151.621 E7.63566
G1 X126.675 Y148.18 E7.73008
G1 X126.676 Y148.013 E7.73467
G1 X126.685 Y147.43 E7.75067
G1 X126.779 Y146.164 E7.7855
G1 X126.83 Y145.782 E7.79607
G1 X126.993 Y144.866 E7.8216
G1 X127.234 Y143.968 E7.84712
G1 X127.715 Y142.714 E7.88397
G1 X127.827 Y142.469 E7.89136
G1 X128.25 Y141.641 E7.91688
G1 X128.742 Y140.851 E7.94241
G1 X129.301 Y140.107 E7.96795
G1 X129.651 Y139.701 E7.98266
G1 X129.883 Y139.445 E7.99214
G1 X130.54 Y138.78 E8.01779
G0 F6000 X130.764 Y139.022
G1 F1200 X131.098 Y138.712 E8.03029
G1 X131.222 Y138.599 E8.0349
G1 X132.496 Y137.454 E8.0819
G1 X134.343 Y135.695 E8.15188
G1 X136.115 Y133.91 E8.2209
G1 X137.902 Y132.005 E8.29257
G1 X139.04 Y130.755 E8.33896
G1 X139.685 Y130.105 E8.36408
G1 X140.385 Y129.514 E8.38922
G1 X140.772 Y129.229 E8.40241
G1 X141.084 Y129.01 E8.41287
G1 X141.856 Y128.517 E8.438
G1 X142.669 Y128.093 E8.46316
G1 X143.515 Y127.742 E8.4883
G1 X144.576 Y127.416 E8.51875
G1 X144.881 Y127.34 E8.52738
G1 X145.779 Y127.158 E8.55252
G1 X147.089 Y127.034 E8.58863
G1 X147.82 Y127.011 E8.60869
G1 X148.147 Y127.006 E8.61767
G1 X151.79 Y127.005 E8.71763
G1 X151.948 Y127.006 E8.72197
G1 X152.558 Y127.015 E8.73871
G1 X153.795 Y127.107 E8.77274
G1 X154.176 Y127.158 E8.78329
G1 X155.078 Y127.319 E8.80843
G1 X155.963 Y127.558 E8.83359
G1 X157.13 Y128.007 E8.8679
G1 X157.341 Y128.103 E8.87426
G1 X158.158 Y128.519 E8.89941
G1 X158.935 Y129.004 E8.92455
G1 X159.475 Y129.401 E8.94294
G1 X159.661 Y129.547 E8.94943
G1 X160.356 Y130.143 E8.97455
G1 X160.785 Y130.568 E8.99112
G1 X161.196 Y131 E9.00748
G1 X161.396 Y131.217 E9.01558
G1 X162.544 Y132.494 E9.0627
G1 X164.305 Y134.343 E9.13276
G1 X166.089 Y136.114 E9.20174
G1 X167.995 Y137.903 E9.27347
G1 X169.245 Y139.04 E9.31983
G1 X169.895 Y139.685 E9.34496
G1 X170.486 Y140.385 E9.3701
G1 X170.76 Y140.757 E9.38278
G1 X170.977 Y141.065 E9.39311
G1 X171.472 Y141.837 E9.41828
G1 X171.897 Y142.648 E9.4434
G1 X172.25 Y143.493 E9.46853
G1 X172.572 Y144.534 E9.49843
G1 X172.65 Y144.842 E9.50715
G1 X172.836 Y145.739 E9.53229
G1 X172.957 Y146.883 E9.56385
G1 X172.974 Y147.216 E9.573
G1 X172.988 Y147.735 E9.58725
G1 X172.994 Y151.787 E9.69843
G1 X172.993 Y151.928 E9.7023
G1 X172.986 Y152.518 E9.71849
G1 X172.893 Y153.792 E9.75354
G1 X172.84 Y154.186 E9.76445
G1 X172.679 Y155.088 E9.78959
G1 X172.439 Y155.972 E9.81473
G1 X171.985 Y157.147 E9.84929
G1 X171.89 Y157.355 E9.85557
G1 X171.474 Y158.171 E9.8807
G1 X170.988 Y158.947 E9.90582
G1 X170.599 Y159.475 E9.92382
G1 X170.453 Y159.661 E9.93031
G1 X169.857 Y160.356 E9.95543
G1 X169.434 Y160.783 E9.97192
G1 X168.998 Y161.198 E9.98844
G1 X168.778 Y161.401 E9.99665
G1 X167.504 Y162.546 E10.04366
G1 X165.657 Y164.305 E10.11364
G1 X163.885 Y166.09 E10.18266
G1 X162.098 Y167.995 E10.25433
G1 X160.96 Y169.245 E10.30072
G1 X160.315 Y169.895 E10.32584
G1 X159.615 Y170.486 E10.35098
G1 X159.243 Y170.76 E10.36366
G1 X158.935 Y170.977 E10.374
G1 X158.163 Y171.472 E10.39916
G1 X157.352 Y171.897 E10.42428
G1 X156.507 Y172.25 E10.44941
G1 X155.466 Y172.572 E10.47931
G1 X155.158 Y172.65 E10.48803
G1 X154.261 Y172.836 E10.51317
G1 X153.106 Y172.958 E10.54504
G1 X152.766 Y172.975 E10.55438
G1 X152.257 Y172.988 E10.56835
G1 X148.192 Y172.994 E10.67989
G1 X148.048 Y172.993 E10.68384
G1 X147.478 Y172.986 E10.69948
G1 X146.208 Y172.893 E10.73443
G1 X145.814 Y172.84 E10.74533
G1 X144.912 Y172.679 E10.77048
G1 X144.028 Y172.439 E10.79561
G1 X142.853 Y171.985 E10.83018
G1 X142.645 Y171.89 E10.83645
G1 X141.829 Y171.474 E10.86158
G1 X141.053 Y170.988 E10.88671
G1 X140.525 Y170.599 E10.9047
G1 X140.339 Y170.453 E10.91119
G1 X139.644 Y169.857 E10.93631
G1 X139.217 Y169.434 E10.95281
G1 X138.802 Y168.998 E10.96932
G1 X138.599 Y168.778 E10.97754
G1 X137.454 Y167.504 E11.02454
G1 X135.695 Y165.657 E11.09453
G1 X133.91 Y163.885 E11.16354
G1 X132.005 Y162.098 E11.23521
G1 X130.755 Y160.96 E11.2816
G1 X130.105 Y160.315 E11.30672
G1 X129.514 Y159.615 E11.33186
G1 X129.24 Y159.243 E11.34454
G1 X129.023 Y158.935 E11.35488
G1 X128.528 Y158.163 E11.38004
G1 X128.103 Y157.352 E11.40517
G1 X127.75 Y156.507 E11.43029
G1 X127.426 Y155.459 E11.46039
G1 X127.348 Y155.15 E11.46914
G1 X127.163 Y154.252 E11.4943
G1 X127.034 Y152.904 E11.53145
G1 X127.011 Y152.157 E11.55196
G1 X127.006 Y151.875 E11.5597
G1 X127.005 Y151.62 E11.5667
G1 X127.005 Y148.18 E11.66109
G1 X127.006 Y148.018 E11.66554
G1 X127.015 Y147.435 E11.68153
G1 X127.106 Y146.208 E11.7153
G1 X127.157 Y145.826 E11.72587
G1 X127.318 Y144.924 E11.75101
G1 X127.557 Y144.04 E11.77614
G1 X128.015 Y142.852 E11.81108
G1 X128.127 Y142.607 E11.81847
G1 X128.544 Y141.791 E11.84361
G1 X129.03 Y141.015 E11.86874
G1 X129.583 Y140.284 E11.89389
G1 X129.895 Y139.922 E11.907
G1 X130.127 Y139.666 E11.91648
G1 X130.764 Y139.022 E11.94134
G0 F6000 X130.989 Y139.264
G1 F1200 X131.323 Y138.954 E11.95384
G1 X131.442 Y138.844 E11.95829
G1 X132.747 Y137.671 E12.00644
G1 X134.554 Y135.951 E12.07489
G1 X136.374 Y134.116 E12.14581
G1 X138.152 Y132.222 E12.21709
G1 X139.284 Y130.978 E12.26324
G1 X139.92 Y130.338 E12.288
G1 X140.962 Y129.499 E12.32471
G1 X141.274 Y129.28 E12.33517
G1 X142.034 Y128.795 E12.35991
G1 X142.834 Y128.38 E12.38464
G1 X143.668 Y128.037 E12.40938
G1 X144.656 Y127.737 E12.43771
G1 X144.961 Y127.661 E12.44634
G1 X145.845 Y127.482 E12.47109
G1 X147.099 Y127.364 E12.50565
G1 X147.83 Y127.341 E12.52572
G1 X148.147 Y127.336 E12.53442
G1 X151.79 Y127.335 E12.63438
G1 X151.943 Y127.336 E12.63858
G1 X152.553 Y127.345 E12.65532
G1 X153.752 Y127.434 E12.68831
G1 X154.133 Y127.485 E12.69886
G1 X155.02 Y127.644 E12.72358
G1 X155.89 Y127.881 E12.74833
G1 X156.994 Y128.308 E12.78081
G1 X157.205 Y128.404 E12.78717
G1 X158.008 Y128.813 E12.81189
G1 X158.772 Y129.292 E12.83664
G1 X159.271 Y129.66 E12.85365
G1 X159.457 Y129.806 E12.86014
G1 X160.141 Y130.394 E12.88489
G1 X160.546 Y130.795 E12.90053
G1 X160.957 Y131.227 E12.91689
G1 X161.151 Y131.437 E12.92474
G1 X162.327 Y132.744 E12.97298
G1 X164.049 Y134.554 E13.04153
G1 X165.883 Y136.373 E13.11241
G1 X167.779 Y138.152 E13.18375
G1 X169.022 Y139.284 E13.22988
G1 X169.662 Y139.92 E13.25464
G1 X170.491 Y140.947 E13.29086
G1 X170.708 Y141.255 E13.30119
G1 X171.194 Y142.015 E13.32595
G1 X171.611 Y142.814 E13.35068
G1 X171.955 Y143.647 E13.37541
G1 X172.252 Y144.615 E13.40319
G1 X172.33 Y144.923 E13.41191
G1 X172.512 Y145.805 E13.43662
G1 X172.628 Y146.9 E13.46684
G1 X172.645 Y147.233 E13.47599
G1 X172.658 Y147.736 E13.48979
G1 X172.664 Y151.788 E13.60098
G1 X172.663 Y151.924 E13.60471
G1 X172.656 Y152.514 E13.6209
G1 X172.566 Y153.748 E13.65485
G1 X172.513 Y154.142 E13.66576
G1 X172.354 Y155.029 E13.69049
G1 X172.116 Y155.899 E13.71524
G1 X171.685 Y157.01 E13.74793
G1 X171.59 Y157.218 E13.75421
G1 X171.18 Y158.021 E13.77895
G1 X170.7 Y158.784 E13.80368
G1 X170.34 Y159.271 E13.8203
G1 X170.194 Y159.457 E13.82679
G1 X169.606 Y160.141 E13.85154
G1 X169.206 Y160.544 E13.86712
G1 X168.77 Y160.959 E13.88364
G1 X168.558 Y161.156 E13.89158
G1 X167.253 Y162.329 E13.93973
G1 X165.446 Y164.049 E14.00818
